albdoor/MSD/data/robot_dynamics_output.csv
time,theta_1,theta_2,theta_3,theta_4,theta_5,theta_dot_1,theta_dot_2,theta_dot_3,theta_dot_4,theta_dot_5,theta_ddot_1,theta_ddot_2,theta_ddot_3,theta_ddot_4,theta_ddot_5
0.0,0.7853981633974483,0.7853981633974483,0.7853981633974483,0.7853981633974483,0.7853981633974483,0.0,0.0,0.0,0.0,0.0,-6.438842415810007,-0.46434112424970575,-0.06193332368583096,-0.4027254073520018,-5.576222379242161
0.01001001001001001,0.7850756525889954,0.7853748331534041,0.7853950494568639,0.7853779782727425,0.7851188302280685,-0.06442244707201858,-0.004674698483971675,-0.0006243809474070693,-0.004034691289707526,-0.05580349233896581,-6.429720792034163,-0.4723265041663522,-0.06326117906518931,-0.40374677044887225,-5.571860850325013
0.02002002002002002,0.7841090344708928,0.785304042048324,0.7853855743230859,0.785317320402871,0.7842812679941182,-0.1286621325683468,-0.009509386888605247,-0.0012754391710833397,-0.008089890273647354,-0.1115195674084471,-6.402312486482966,-0.4963188701555268,-0.0672726471844159,-0.4068287140911095,-5.558746710116445
0.03003003003003003,0.782501056354218,0.78518338522459,0.785369335390645,0.785215880560359,0.7828867914218218,-0.1925354417772564,-0.014664762258583312,-0.0019804072961222253,-0.012186458768859263,-0.1670602228426316,-6.356491264966955,-0.5364220208195838,-0.074051272186148,-0.41202427412598974,-5.536792524155634
0.04004004004004004,0.780256311325865,0.7850088429019331,0.7853456522004436,0.7850731373711751,0.7809376016019364,-0.25585712977806446,-0.020302837535020594,-0.0027676380961780675,-0.01634596257436794,-0.22233630157131257,-6.29206019892507,-0.5927928396369748,-0.08373570527793163,-0.4194200906931297,-5.505856649140598
0.050050050050050046,0.7773812573583607,0.7847747652094808,0.7853135528817701,0.7848883488573304,0.7784367997965704,-0.31843969296919195,-0.02658738960958084,-0.003667130858081542,-0.02059098844679908,-0.2772569851640111,-6.208771472205403,-0.665617643539991,-0.09651873162150494,-0.4291337927551003,-5.465749287050401
0.06006006006006006,0.7738842421971703,0.7844738537537419,0.7852717543256811,0.7846605404196745,0.7753884067831461,-0.38009303514446635,-0.033684027664197924,-0.004711098338039963,-0.024945444786459898,-0.33172934769477636,-6.106353410640489,-0.7550800441320968,-0.11264571194290032,-0.44131036804830526,-5.416240857182069
0.07007007007007007,0.7697755308022995,0.7840971424689418,0.7852186384648125,0.7843884906402362,0.771797385429988,-0.44062430226248733,-0.041760102858783926,-0.005934439258018378,-0.02943480635895457,-0.38565800553798313,-5.984543890832371,-0.8613213841965909,-0.13241236094269587,-0.45611756043474944,-5.357072488663858
0.08008008008008008,0.7650673293456673,0.7836339869974912,0.7851522211949105,0.7840707141551326,0.7676696667905684,-0.4998383059817738,-0.050983867349519846,-0.007375281379174615,-0.03408632069294595,-0.4389448962296789,-5.843128709171114,-0.9843957149529796,-0.15616146338278403,-0.4737403906097076,-5.287968413606055
0.09009009009009009,0.759773810174578,0.7830720535608429,0.7850701207033187,0.7837054437912485,0.7630121772476623,-0.5575380109197997,-0.061523634399682114,-0.009075366952870399,-0.03892914687433751,-0.49148915558418715,-5.6819838640647715,-1.1242203923486878,-0.18427883450647634,-0.4943748760311384,-5.208649850726544
0.10010010010010009,0.753911118352594,0.7823973368297418,0.7849695144895041,0.7832906097821384,0.7578328672691997,-0.6135259239316422,-0.07354579370593811,-0.011080529467660605,-0.04399443167721234,-0.5431871972266464,-5.501118615509033,-1.2805267035947623,-0.21718752005100725,-0.5182211953831859,-5.118849935268067
0.11011011011011011,0.7474973757093891,0.7815941771970076,0.7848471030701942,0.7828238218644673,0.7521407358475742,-0.667605328948915,-0.08721312294288901,-0.013440970260025208,-0.04931532104665451,-0.59393285908251,-5.300718343359021,-1.4528109737277008,-0.2553414188713094,-0.5454764183511931,-5.018328924149203
0.12012012012012012,0.740552662246717,0.7806453151815145,0.7846990584451357,0.7823023464438483,0.7459458586564555,-0.719582506443709,-0.10268187941373941,-0.016211554133704374,-0.05492688096826344,-0.643617798559033,-5.081183115350702,-1.640292007440268,-0.29921693552073025,-0.5763271605873658,-4.906889168785571
0.13013013013013014,0.7330989585426327,0.77953198887327,0.7845209785869324,0.7817230919213195,0.7392594003921837,-0.7692690661644543,-0.12009881477963849,-0.019452024645395763,-0.06086596022280801,-0.6921319827923016,-4.843158579058002,-1.8418784872409495,-0.3493033236471061,-0.6109425358877817,-4.784388556151192
0.14014014014014015,0.7251601254489825,0.7782339862695875,0.7843078453726321,0.7810825882016679,0.7320936390069722,-0.816483988061274,-0.1395986384566804,-0.023226997196462557,-0.06717101313203723,-0.7393641880159622,-4.587561501685058,-2.0561423388915383,-0.40609395498711987,-0.6494673815064623,-4.650752270835483
0.15015015015015015,0.7167617539277831,0.7767298676100436,0.78405396023816,0.7803769731730963,0.7244619649140825,-0.8610573618017157,-0.16129939652731476,-0.027606008051513826,-0.07388174914171258,-0.7852029531074776,-4.315586382605015,-2.281317657359817,-0.47007318855900193,-0.6920168584922765,-4.505981221803312
0.16016016016016016,0.7079310581565037,0.7749971203725878,0.7837529047250186,0.7796019852776904,0.716378877274678,-0.9028325370442587,-0.18529987964370784,-0.03266340518722483,-0.08103888608329153,-0.8295371895512417,-4.028703764012581,-2.515308072925752,-0.5417060732851201,-0.7386720073774783,-4.350157048355255
0.17017017017017017,0.6986968244430795,0.7730122454015533,0.783397508652281,0.7787529467370238,0.7078599980249595,-0.9416682409672137,-0.21167714633319742,-0.03847802225692155,-0.08868382860568906,-0.8722568592038583,-3.728650316139153,-2.755702460454147,-0.6214312486861786,-0.7894763003270425,-4.183443819509839
0.18018018018018017,0.6890890802162658,0.7707512072572226,0.7829797760806926,0.7778247661082942,0.6989220280240095,-0.9774425259773312,-0.24048188494942985,-0.045132795276618995,-0.09685810887207427,-0.9132542218269444,-3.4173873063318494,-2.9998344036029323,-0.709645322679212,-0.8444350364151296,-4.006084567318509
0.19019019019019018,0.6791389581696666,0.7681896176005916,0.7824908571295238,0.7768119403508998,0.6895827275287274,-1.0100540557589537,-0.27173694516807945,-0.05271455960397368,-0.1056031808822695,-0.9524242792943219,-3.097062992687208,-3.2448316007544324,-0.8066968468479263,-0.9035156846038527,-3.81839485680743
0.20020020020020018,0.6688785640372387,0.7653029154737454,0.7819210286239963,0.7757085487464238,0.6798609048732149,-1.0394233346083805,-0.30543613230888345,-0.061313351227187965,-0.11496002485630531,-0.9896654054167092,-2.7699677228295085,-3.487673042938266,-0.9128832834386577,-0.9666494028582354,-3.6207536150348205
0.21021021021021022,0.6583406978479546,0.7620667346951804,0.7812596594346782,0.7745082628404631,0.6697763696055222,-1.0654941988414237,-0.3415426807732629,-0.07102183240077854,-0.12496872867843017,-1.0248800473363935,-2.438474169673905,-3.7252666889811894,-1.0284450778271723,-1.0337347523088238,-3.4135910499811435
0.22022022022022023,0.6475584983016441,0.75845736881728,0.7804951605154452,0.7732043651072408,0.6593498645259528,-1.0882347190031276,-0.3799885202066547,-0.08193470203406489,-0.1356681830679958,-1.057975298307109,-2.1049711934054858,-3.9545365500740535,-1.1535583692081808,-1.104643204223445,-3.197375202477187
0.23023023023023023,0.6365653380990692,0.7544519027874436,0.7796149848189617,0.7717897538064691,0.6486030443385425,-1.10763678136818,-0.4206750220023279,-0.09414826709989335,-0.14709595724383073,-1.0888630035099394,-1.7718187926976139,-4.172477801189657,-1.2883397678350494,-1.1792243690027946,-2.972599484668882
0.24024024024024024,0.6253946514739563,0.7500284306402453,0.7786056389371702,0.7702569521697465,0.6375584432968098,-1.1237154301581613,-0.46347415082668325,-0.1077597331867745,-0.159287984220964,-1.117459958954293,-1.441304313597058,-4.376211363772785,-1.4328509066556996,-1.2573116462116214,-2.739771080576941
0.2502502502502503,0.6140795284498508,0.7451665713218116,0.7774526477101629,0.7685981387544758,0.6262393841260444,-1.1365077734202123,-0.508230416941047,-0.12286648993074006,-0.1722784763701953,-1.1436880879314628,-1.1155905000382322,-4.563054784445545,-1.5870932212798932,-1.3387295946282618,-2.4994003523981703
0.2602602602602603,0.6026525356820701,0.7398476926962365,0.7761405439324218,0.7668051599504675,0.6146699359301265,-1.1460721587614406,-0.5547622403573848,-0.13956564955952006,-0.1860998979651913,-1.1674744911167503,-0.7966891360763716,-4.730557731468749,-1.7510109349046665,-1.4233005523468987,-2.251993729570904
0.2702702702702703,0.5911456293293521,0.734055007064035,0.7746529041885067,0.7648695413506181,0.6028748886209719,-1.152486297932081,-0.6028645902944098,-0.15795361217965775,-0.2007829302726178,-1.1887512446381434,-0.48645217324956175,-4.876513784057803,-1.924498308071753,-1.510850048380819,-1.9980497538897453
0.2802802802802803,0.5795899303565676,0.7277738448751602,0.7729723549824432,0.7627825096002628,0.5908796964955654,-1.1558455235394256,-0.6523116734691896,-0.17812555674740727,-0.2163565268163049,-1.207455316488598,-0.18656261835948107,-4.998977161540342,-2.1073987857633445,-1.601212680150068,-1.738057567547993
0.2902902902902903,0.5680154327607738,0.7209920001485377,0.7710805690548489,0.7605350146226658,0.5787103950434486,-1.1562608862046486,-0.7028601346670574,-0.20017455516299354,-0.23284810894640454,-1.2235285888031935,0.10147074105850463,-5.09627731432357,-2.299498801473606,-1.694237829756867,-1.472497665538452
0.3003003003003003,0.5564509582133474,0.713699768329411,0.7689582952190114,0.7581177366726399,0.5663935804145164,-1.153858005506711,-0.7542508139225462,-0.2241912826870053,-0.2502836636050378,-1.236917761597,0.37629489944262207,-5.166999897315934,-2.500528595465895,-1.7897939281121347,-1.2018459682636378
0.3103103103103103,0.544924095662064,0.7058900038589261,0.7665853939840571,0.7555210991337743,0.5539563889593108,-1.148775539665991,-0.8062110704115195,-0.2502638153630154,-0.26868790328475256,-1.2475741885198561,0.6366906878697319,-5.209964400343918,-2.7101593491385487,-1.8877721779104415,-0.9265796030780837
0.3203203203203203,0.5334609156960352,0.6975584195833151,0.7639408688758728,0.7527352863851838,0.5414263931856456,-1.1411633427707308,-0.8584583976095795,-0.2784762098116927,-0.28808467933498394,-1.2554540984782931,0.8815640907092682,-5.2242223486723365,-2.92798964688477,-1.9880903252687414,-0.6471820666924697
0.3303303303303303,0.5220858968788618,0.6887036478257632,0.7610028966464026,0.7497502485201393,0.5288315663170118,-1.1311816701482054,-0.9107019327289039,-0.30890794272534927,-0.30849715206594214,-1.26051866242556,1.1099233685198409,-5.209035146774252,-3.1535350836640457,-2.0906956518937596,-0.3641503708847773
0.34034034034034033,0.510821951020376,0.679327178384337,0.7577488760633758,0.7465557035593248,0.516200279777166,-1.1190006521496767,-0.9626435771837922,-0.3416337088887735,-0.3299480268842285,-1.2627340225946801,1.3208511009620385,-5.163843295841552,-3.386219224877271,-2.1955672149241945,-0.07800266056997808
0.35035035035035034,0.4996902326471107,0.6694335141014238,0.7541554963624463,0.7431411418990995,0.5035612127658335,-1.1047992657570176,-1.0139806329695278,-0.37672176031961835,-0.35246002236375307,-1.2620716791477424,1.5134942782774303,-5.088260213939817,-3.6253562953317267,-2.3027177581397846,0.2107164972747993
0.36036036036036034,0.4887099928221946,0.6590302710108014,0.7501988146758979,0.7394958278921161,0.49094326824940104,-1.0887642793784358,-1.064408237445948,-0.41423238338919105,-0.37605622160647867,-1.258508798248215,1.6870564145167246,-4.982067076623128,-3.8701333291500126,-2.4121951426985775,0.5014316085459567
0.37037037037037035,0.4778986053624415,0.6481280991125883,0.7458543172442487,0.7356087921444991,0.478375562743006,-1.0710903503968519,-1.1136197340469922,-0.4542173174213141,-0.40076029307720923,-1.2520284231895598,1.8407836805511897,-4.845197900094003,-4.1195951540537905,-2.524083462320991,0.7935308014229291
0.38038038038038036,0.46727152205796807,0.636740677713845,0.7410969824300894,0.731468821862018,0.4658873960217923,-1.05198016522582,-1.161307364041176,-0.49671860260526807,-0.42659686502572,-1.2426198557265475,1.973962061252135,-4.677738773153254,-4.372626093519041,-2.6385038988498426,1.0863615406400973
0.39039039039039036,0.45684206480401407,0.6248847850790165,0.7359014908753111,0.72706444805159,0.4535080896716309,-1.031642638047556,-1.2071664117504401,-0.5417652965986641,-0.45359211080361583,-1.230279282025763,2.0859306921678593,-4.479941929172408,-4.627936768754796,-2.755612907154133,1.3792311723637085
0.40040040040040037,0.44662140763874614,0.61258026230984,0.7302423002587239,0.722383937468398,0.4412669517654061,-1.0102925610073747,-1.250896107458819,-0.5893726053467884,-0.48177390424986505,-1.2150099661328826,2.1760906346754862,-4.2522370045772515,-4.884047407069696,-2.8756024150959676,1.6714045515203313
0.41041041041041043,0.4366186108157153,0.599849912500549,0.724093724826088,0.7174152671503053,0.42919327909101873,-0.9881513944637288,-1.292199203370713,-0.6395407739167683,-0.5111721208192587,-1.1968226827369808,2.2439150921515862,-3.995243139644034,-5.139274577289828,-2.9986989536150666,1.9621000940493563
0.42042042042042044,0.42684048585751594,0.5867194780779262,0.7174301800323293,0.7121460978370958,0.4173162168957708,-0.965445397353514,-1.3307858024151755,-0.6922519160659562,-0.5418191072390239,-1.175736334408289,2.2889753101565904,-3.7097948020230596,-5.391726542425117,-3.1251596712023595,2.2504902716660835
0.43043043043043044,0.4172915202127267,0.5732175437385313,0.7102264394232433,0.706563753133467,0.4056646219367811,-0.9424035182165419,-1.3663772038793225,-0.7474673642129315,-0.5737500027144609,-1.1517784048072361,2.310966815749292,-3.396965991782901,-5.63930489551203,-3.2552679561452473,2.5357018543527303
0.44044044044044045,0.40797391031500047,0.5593754204653598,0.7024577549581508,0.7006551978833199,0.3942670341914771,-0.9192569900867688,-1.3987066858301174,-0.8051267555656015,-0.6070028265419531,-1.1249852738265715,2.309732673944582,-3.0580964577394156,-5.879702351814561,-3.3893306370911263,2.816810841267101
0.45045045045045046,0.39888754354178574,0.5452271124250242,0.6940999510418284,0.6944069990224137,0.3831516743822489,-0.8962395563196944,-1.4275196968568498,-0.8651465034380807,-0.641618757526659,-1.0954027516692322,2.285292812298317,-2.694829533523209,-6.1103991485245395,-3.527673941091774,3.092833209997033
0.46046046046046046,0.39002997559329594,0.5308089930608169,0.6851299503897399,0.6878052846845121,0.37234619165375205,-0.8735825456744091,-1.4525815917602771,-0.927416047683469,-0.6776423116132912,-1.063087051021166,2.237867890260276,-2.3091219319832943,-6.328698830262354,-3.670631629845175,3.3627234346649364
0.47047047047047047,0.3813964550321199,0.5161596387708368,0.6755259810292188,0.6808357282877301,0.3618775732724546,-0.8515131283881268,-1.473680302570564,-0.99179662269033,-0.7151213595245097,-1.028105154161026,2.1679027036698217,-1.9032699219609883,-6.53174373793633,-3.818537937564884,3.6253631602383996
0.4804804804804805,0.3729799958835851,0.5013196502240951,0.6652677471626299,0.6734835136480917,0.35177210836427775,-0.8302534414746281,-1.4906275246118241,-1.058120639687887,-0.754107036040099,-0.9905355458962801,2.076083519317539,-1.4799330007561884,-6.716530599883368,-3.971718390352481,3.8795429117550198
0.4904904904904905,0.36477135770252495,0.4863315873873779,0.6543366038046442,0.6657332868613759,0.34205533840635827,-0.8100191791978386,-1.5032610565690836,-1.1261902002851416,-0.7946538457991105,-0.9504691686903665,1.9633603815236966,-1.0421688940983116,-6.879923739551216,-4.130477641968457,4.123939133889115
0.5005005005005005,0.35675927362260734,0.4712392325254509,0.6427162608107161,0.6575691302484455,0.3327517157306286,-0.7910133978229483,-1.511453884058906,-1.1957751143710111,-0.8368188676873897,-0.9080114658790328,1.830932143840624,-0.5933930228676014,-7.018725121043227,-4.2950768607053575,4.357098692738709
0.5105105105105106,0.34893052193048113,0.4560874027767482,0.6303929384881185,0.6489745570848691,0.32388453120672284,-0.7734253287028561,-1.5151158716919553,-1.2666126662907413,-0.8806614949460811,-0.8632829240140623,1.6802475316477463,-0.1373943940567696,-7.129689353945443,-4.465715741036054,4.577405442618209
0.5205205205205206,0.34127003678058226,0.44092172788752554,0.6173555447367981,0.6399324773760282,0.3154758444296994,-0.7574294858922227,-1.514195109080702,-1.3384079545119933,-0.9262428404896695,-0.8164209174556989,1.5129984366945197,0.32165431697592844,-7.209537822559783,-4.642508202298284,4.783041261060034
0.5305305305305306,0.33376096248527054,0.42578843722050236,0.6035959279103226,0.6304251556991829,0.30754634872129205,-0.7431834851905318,-1.5086817881057903,-1.4108330009711443,-0.9736251418237636,-0.7675819193085813,1.3311132079368597,0.7791854487398954,-7.254973459776013,-4.8254501453982765,4.971944618763746
0.5405405405405406,0.32638513456824614,0.41073323039212156,0.5891096362102817,0.6204342642965276,0.3001148969373066,-0.7308231367403542,-1.4986159205325749,-1.4835271655911495,-1.0228687958772698,-0.7169456780437524,1.1366900004354235,1.2303315197779114,-7.2627541590393285,-5.014374469681058,5.141777887771684
0.5505505505505506,0.319123170842335,0.39580108076650566,0.5738960347328511,0.6099408970310654,0.29319841997737184,-0.7204618914585185,-1.484088251397126,-1.5560974553108498,-1.0740316872824076,-0.6647161148955479,0.9319783997318756,1.6699152762202967,-7.229687614569465,-5.208903849173062,5.2898761282611195
0.5605605605605606,0.3119545848626852,0.38103599879286093,0.5579584384713453,0.598925573835367,0.2868117545271688,-0.7121910685238351,-1.4652412886603081,-1.6281193765551323,-1.127167145007904,-0.6111252751834737,0.7193611294190618,2.0924417426989352,-7.152626522839389,-5.408394914306221,5.41319994328507
0.5705705705705706,0.3048579352988271,0.36648059813782796,0.541304435828167,0.5873682579582126,0.28096734405806323,-0.7060780998966495,-1.4422737776579204,-1.6991363550652274,-1.182321292869154,-0.556437576157572,0.5013300469540507,2.4921115179486093,-7.028483916768783,-5.611867844988045,5.5082957592079484
0.5805805805805806,0.2978114557370322,0.3521747291138536,0.5239465675018417,0.5752486057263856,0.275674586476444,-0.7021645482976309,-1.4154447478111407,-1.7686625193049765,-1.2395262266476847,-0.5009557882628575,0.28039999297697077,2.8629495936964577,-6.854306807225556,-5.817927456421071,5.571277022517968
0.5905905905905906,0.29079313711949284,0.33815529941668326,0.5059024014918684,0.5625460153253705,0.2709397221707893,-0.7004661922265152,-1.385073731520565,-1.8361833382163295,-1.298798616850167,-0.4450223339443761,0.05910482251385469,3.198802056009092,-6.627286438310077,-6.0246761255734675,5.5978020562665405
0.6006006006006006,0.28378077296441767,0.32445603176458426,0.48719464559721093,0.5492397617531498,0.2667654311228055,-0.700974092232256,-1.3515422135902344,-1.9011561584591865,-1.3601341538048533,-0.38902538384358504,-0.15999797606017815,3.493345342976546,-6.344793943542277,-6.2296263657688264,5.583080940102508
0.6106106106106106,0.27675236442453144,0.31110648630844423,0.4678516006684316,0.5353093133126278,0.2631501997268525,-0.7036535755803036,-1.3152959890309661,-1.963013173065567,-1.4234996299041953,-0.33340376124576865,-0.37436830862661985,3.7402080834892555,-6.004494718528831,-6.42961158220826,5.521922113339918
0.6206206206206206,0.26968653382962776,0.29813120179469316,0.4479074169642693,0.5207347189400152,0.26008779962463835,-0.7084448918645095,-1.276843270903971,-2.021166821918569,-1.4888256192139242,-0.27864968183903677,-0.5815184554895133,3.9331143135159397,-5.6044881270355384,-6.620712069227707,5.408818208392004
0.6306306306306306,0.2625625444494184,0.2855494823418476,0.42740216895112804,0.5054968480801153,0.2575668923735419,-0.7152635088869962,-1.2367547757846036,-2.0750120516813277,-1.5560007231574797,-0.22531138860679156,-0.7789960338099634,4.065985866757951,-5.143465763395106,-6.798195047252407,5.238072317796759
0.6406406406406406,0.25536054380006035,0.273374710213001,0.40638206029437973,0.4895779076832925,0.2555703383803726,-0.7240001667857106,-1.1956615367317787,-2.1239335679241385,-1.624861866977716,-0.17399481244396467,-0.9644050208163915,4.133156529574584,-4.620946503209821,-6.9564970873833305,5.003995197268417
0.6506506506506506,0.24806204356350037,0.2616134603588297,0.38489943900500945,0.4729621724039306,0.2540745811174807,-0.734522873876169,-1.1542452258933473,-2.16731967741851,-1.6951850685500083,-0.1253608303434351,-1.1354622589122108,4.129679950281681,-4.037556387240696,-7.0892737352942765,4.701171812926684
0.6606606606606606,0.24064993893635442,0.2502653526636061,0.36301272916045046,0.4556363757842036,0.25304927807886246,-0.7466772310594165,-1.1132336908257583,-2.204569612432599,-1.7666805220773625,-0.08012257035256569,-1.2900088891688917,4.051603553618675,-3.39532454448975,-7.1894914919406245,4.324770574692235
0.6706706706706707,0.2331086941819795,0.23932260354415835,0.34078630598285337,0.43759047723658034,0.2524566770458584,-0.7602871955174838,-1.0733899200044894,-2.235109893211818,-1.8389850580459597,-0.03903760816464018,-1.4260671682580883,3.8963372442195157,-2.6980000303967335,-7.2496218411508995,3.8709276098675347
0.6806806806806807,0.22542473536935426,0.22876960811079655,0.3182899346897314,0.41881859476656297,0.2522512656205394,-0.7751594864038026,-1.0354901425224123,-2.258418082658751,-1.9116586880541473,-0.0028935801293731387,-1.5419357882433125,3.663060058410443,-1.9513159275154102,-7.261950102725153,3.337168243398837
0.6906906906906907,0.21758646324272873,0.2185829995969022,0.29559839086970224,0.3993195207357893,0.2523795697676791,-0.7910848433891151,-1.0003115580101731,-2.2740368856002995,-1.9841846965412508,0.02750354215779196,-1.6362634700984524,3.353065516865743,-1.1632009266679173,-7.2189255782845585,2.7228121388847577
0.7007007007007007,0.2095844212914125,0.20873175810107766,0.2727905641556819,0.3790976252997357,0.25278003632584234,-0.8078425363967305,-0.968605728875862,-2.2816007626728183,-2.055973798199429,0.05135291987077538,-1.708150699520265,2.9700609496809784,-0.34383118301867177,-7.113629950804355,2.0293639059999706
0.7107107107107107,0.2014114153383285,0.19917756583372054,0.24994842673451054,0.3581635183502308,0.2533832231992077,-0.8252059582427262,-0.9410737193669656,-2.2808569818451643,-2.126372470550862,0.06788059789396791,-1.7572486397648528,2.520342380474009,0.4944868578418858,-6.940264625056629,1.2608010625055222
0.7207207207207207,0.19306252005948107,0.1898754162292388,0.22715590200855915,0.33653459022137644,0.2541121612520778,-0.8429474951861287,-0.9183416625257019,-2.2716848620725867,-2.194676638529061,0.07636528619952086,-1.7838367060327585,2.0127977620819886,1.3376319132276893,-6.694622877095053,0.42372913583707195
0.7307307307307307,0.18453506176145726,0.1807745852177043,0.20449728336544995,0.3142354902691382,0.2548830784641382,-0.8608464400403089,-0.9009330135473919,-2.254112645805997,-2.2601503605331486,0.07616562645439805,-1.7888653450741503,1.4586818922715028,2.1702270096696563,-6.374507710972276,-0.4726450209213576
0.7407407407407407,0.17582853033140017,0.17181959780868514,0.18205594978602982,0.2912982787686648,0.2556062090454845,-0.878694069566031,-0.8892501978696692,-2.2283253821964757,-2.3220458424461112,0.06674347129953417,-1.7739655490713049,0.8712180874251936,2.976322260792797,-5.979991086705928,-1.4167361219807197
0.7507507507507507,0.16694438853075838,0.16295178632645663,0.15991245139250207,0.26776246904914414,0.25618712806848,-0.8963021227175958,-0.8835543057742444,-2.1946671673558367,-2.379629560284894,0.04768821500816532,-1.7413844613556682,0.2649426792299446,3.7402650726741107,-5.513524334896534,-2.3950098921732206
0.7607607607607607,0.15788588954650953,0.15411046439957826,0.13814327795344108,0.24367477685055605,0.2565278763027003,-0.913506907987968,-0.8839581149364768,-2.1536346518095977,-2.4322022406409025,0.018731051214411598,-1.693902122439376,-0.3449902816248798,4.4474984138038645,-4.979815702934278,-3.3925550322990503
0.7707707707707707,0.14865776018121035,0.14523467021263,0.116819169793543,0.21908859696393448,0.25652867173044114,-0.930174774416303,-0.890423367332071,-2.105859979741278,-2.479123128548239,-0.020243161079399274,-1.6346759807616897,-0.9436343868147609,5.085353123074972,-4.385525974562698,-4.393781521079651
0.7807807807807807,0.13926589760138547,0.13626456091735736,0.09600392165944288,0.19406343280296998,0.25608931810424757,-0.9462051936528357,-0.902765289791596,-2.0520913591904484,-2.5198256315929832,-0.06919285067658786,-1.5670822262988486,-1.5169765965192215,5.643626635253561,-3.73880800579785,-5.383123748469
0.7907907907907907,0.12971706773858516,0.1271427241321873,0.07575347816016244,0.16866400048823832,0.25511077279788524,-0.9615313238050495,-0.9206669596708612,-1.993165058912855,-2.5538294336588008,-0.12792395581547783,-1.4945532479665697,-2.0525335756024905,6.1149187010346875,-3.0487323340754218,-6.345708038412561
0.8008008008008007,0.12001847387696894,0.11781569074068814,0.056114940148278745,0.14295935196244264,0.25349677267413434,-0.9761206960843619,-0.9436962289257717,-1.9299755090740596,-2.580748009867928,-0.19609944505936455,-1.4204012759808795,-2.5398285794804405,6.494767889553173,-2.3247103584597317,-7.267913602517273
0.8108108108108109,0.11017756181861336,0.10823459065072695,0.03712642148626379,0.11702200504511702,0.2511549104127955,-0.9899728023855511,-0.9713253308260075,-1.8634505418730751,-2.600288034201708,-0.2732526509763111,-1.3477196803486926,-2.970553139602846,6.781472843462435,-1.5759550977038599,-8.137758650828637
0.8208208208208209,0.10020158374557642,0.09835632769163616,0.018816685632065788,0.09092685649933634,0.2479981649849804,-1.0031161452432906,-1.0029573374505103,-1.7945192545956183,-2.612244741172493,-0.35880870968371115,-1.2792607398416858,-3.338651550226817,6.975795422083447,-0.8110380666943932,-8.945149911064375
0.8308308308308309,0.09009733830286491,0.08814416589504369,0.0012051168834871992,0.06475050323716029,0.2439457518730725,-1.0156053753776273,-1.0379436188416487,-1.72409358513314,-2.616496492460846,-0.45209947993939414,-1.2173792765634455,-3.64019521025913,7.080538525892022,-0.037616464719387836,-9.681947279888764
0.8408408408408409,0.0798710640124715,0.07756777863080053,-0.01569767611173299,0.03857042697223838,0.23892379821616105,-1.0275166183788575,-1.075604965126601,-1.6530511229605374,-2.6129917979698214,-0.5523847432493406,-1.1640309961612127,-3.87308571835977,7.100009258490166,0.73772312037818,-10.341893484208255
0.8508508508508509,0.06952807294423025,0.06660386396916392,-0.03188967846909117,0.01246422702686039,0.23286626462217147,-1.038942927254084,-1.1152516469401967,-1.5822184123237097,-2.6017392549698495,-0.6588724966590078,-1.1207345550734238,-4.036824424364941,7.03958065335841,1.5094687888717473,-10.92046978896238
0.8608608608608609,0.059072668684934174,0.05523608697470195,-0.04737697052296633,-0.013490811038272914,0.22571524257739134,-1.049990817797173,-1.1561944789033567,-1.5123648887935608,-2.582799314896606,-0.7707314526093698,-1.0885929844807447,-4.1321944650173466,6.905280225150721,2.2730588059526964,-11.414674124794757
0.8708708708708709,0.04850810857513916,0.04345477737915543,-0.0621729047835137,-0.039218153641204,0.21742114334664261,-1.0607762321718415,-1.1977559741647348,-1.4441998082098293,-2.5562726200527894,-0.8871070106292321,-1.0683274664863007,-4.160944759237017,6.703429850142165,3.0246932276496463,-11.822773993770848
0.8808808808808809,0.037836394900966575,0.031257075924106925,-0.07629764752950607,-0.06464256528223337,0.2079431340240582,-1.0714195992722284,-1.2392824802284281,-1.3783664718235304,-2.522295616108153,-1.0071338669494692,-1.0602705640894265,-4.1256097722752765,6.440437273162769,3.761102692885964,-12.144095856832685
0.8908908908908909,0.027058331005224884,0.018646524123969138,-0.08977753601536591,-0.08969027751354461,0.1972490294565229,-1.0820434205129068,-1.2801476105589775,-1.3154447726191119,-2.481036075584773,-1.1299431818676007,-1.0643978040756434,-4.029315778527779,6.12265099705361,4.479284886610538,-12.378812048194183
0.9009009009009009,0.016173527743020517,0.00563268465818291,-0.10264433287612704,-0.11428930550345173,0.18531524328106014,-1.09276839675991,-1.3197578900905866,-1.2559530304094804,-2.4326908953150848,-1.254671656411849,-1.0803452960454951,-3.8756560791771046,5.75628320278474,5.176275794597131,-12.52777836597489
0.9109109109109109,0.005180374268491078,-0.007769042225226657,-0.11493468855470462,-0.1383699138316998,0.17212690158278363,-1.1037090660937792,-1.3575602151227368,-1.200345838670049,-2.377487978784635,-1.3804681912042196,-1.1074083996398212,-3.6686518494262206,5.3474145717786135,5.848963456605332,-12.592428231164916
0.9209209209209209,-0.005923829825603046,-0.021537944946355907,-0.12668955935403295,-0.16186466710129416,0.15767748791800093,-1.1149722798547184,-1.393041428555123,-1.1490191955219626,-2.315687064622723,-1.506497447844295,-1.1445643042865037,-3.4127067829930664,4.902029596954044,6.493923268083372,-12.574669881461968
0.9309309309309309,-0.01714278481088847,-0.03564845338939854,-0.13795349875285023,-0.18470896034992793,0.1419687199380223,-1.1266527161242932,-1.4257348819136415,-1.1023094692300515,-2.24758455531347,-1.6319459504152665,-1.1904867761486064,-3.1125950792693224,4.426052963405979,7.107351398281928,-12.4768433453378
0.9409409409409409,-0.02848108753507716,-0.050070521168365814,-0.14877412379750649,-0.20684145084284242,0.1250104487407798,-1.1388297351538175,-1.4552253557846024,-1.0604920025855256,-2.1735169445439815,-1.7560260702875714,-1.243559987546564,-2.773471112927284,3.925408449742188,7.685041107460652,-12.30168407872136
0.950950950950951,-0.03994404788401186,-0.06477018656953215,-0.15920161527259508,-0.2282041915710728,0.10682016269733138,-1.1515663175430577,-1.4811483498673323,-1.0237848435521095,-2.0938644640201836,-1.8779782327989105,-1.3019108483767445,-2.4008556582023837,3.406071804505614,8.222388739720154,-12.052268678515514
0.960960960960961,-0.05153748207286307,-0.0797101997486205,-0.16928792108305912,-0.2487434159917105,0.08742280176595253,-1.164904866283955,-1.503197823230703,-0.9923449779526495,-2.00905541120171,-1.9970760593310548,-1.3634512430857186,-2.0005927430277746,2.874063503657924,8.714499311841763,-11.731987056309471
0.970970970970971,-0.06326753224774366,-0.09485052131541115,-0.17908624835988596,-0.2684099260444518,0.06685048211985462,-1.1788656942296911,-1.5211285161360462,-0.9662680597283202,-1.9195678515513657,-2.1126286134971615,-1.4259172190067788,-1.5788133435101037,2.3354612885780486,9.15628548005611,-11.344477662924938
0.980980980980981,-0.07514046643236748,-0.11014886306692517,-0.18865063235144708,-0.2871593705639562,0.0451419668658791,-1.1934467497871089,-1.5347553960703408,-0.9455903270189387,-1.8259315682290147,-2.2239812249445636,-1.4869157654219054,-1.1418791671431994,1.7964009950693591,9.54257387404277,-10.89353416925946
0.990990990990991,-0.08716235068580269,-0.12556156641773655,-0.19803495810955568,-0.3049531604262383,0.022342391139465834,-1.2086209234990821,-1.5439594609902978,-0.9302855634089481,-1.728727518559271,-2.3305184073159744,-1.5439977197388757,-0.6962494815872541,1.262986474084435,9.868278673663024,-10.38301754175072
1.001001001001001,-0.09933887106480092,-0.14104406723442936,-0.20729256147761804,-0.3217587549338706,-0.0014970765599085258,-1.2243363194652113,-1.5486869617197359,-0.9202663413153105,-1.6285866660446453,-2.431663450352203,-1.5946994215443941,-0.24840999062914454,0.7412726231911624,10.128511938486879,-9.81673615164979
1.011011011011011,-0.11167513776746779,-0.15655141422139388,-0.21647583625213154,-0.33754997963969374,-0.026319749458993916,-1.2405172851129653,-1.5489470342121414,-0.9153860899120922,-1.5261882994998277,-2.526875983728497,-1.6365840388220074,0.19520692780672208,0.23724153883047067,10.31868136759542,-9.198317794411002
1.021021021021021,-0.12417529388064932,-0.17203929924737327,-0.2256351404406213,-0.35230789172754257,-0.05206371192501598,-1.2570637350907734,-1.5448133167706937,-0.9154386706922198,-1.4222543534269045,-2.6156509841271456,-1.6673129477111062,0.628386680210376,-0.24331393109258542,10.434633064651218,-8.53110927263598
1.031031031031031,-0.13684237172786048,-0.18746443862224324,-0.23481848086476667,-0.366020966711881,-0.07866209757327147,-1.2738524104471272,-1.53642111367167,-0.9201605131005434,-1.3175461461958786,-2.6975160851305597,-1.6846628528751042,1.0451773249035987,-0.6947933671751549,10.472722450865907,-7.818095937607117
1.0410410410410411,-0.14967815843716492,-0.20278494539304073,-0.24407125093212112,-0.37868529008944013,-0.10604348968169663,-1.2907389658481945,-1.5239626722610924,-0.9292333029974275,-1.2128602378690272,-2.772025513431737,-1.6865339176597807,1.4399184089588344,-1.1117858726669947,10.429872981699733,-7.061856448764113
1.0510510510510511,-0.16268279861007556,-0.2179613823597139,-0.2534351162206077,-0.39030521636976645,-0.13413215283811994,-1.3075588557648532,-1.507684823497994,-0.9422863411303335,-1.1090184381292523,-2.838757497996613,-1.6710008418860416,1.8073730395300198,-1.489181401063079,10.303700444845589,-6.264587603764146
1.0610610610610611,-0.17585467730508242,-0.23295708169947718,-0.26294772210966066,-0.4008934690337209,-0.16284820680187537,-1.32412872060046,-1.4878856628936847,-0.9588989887222451,-1.0068629262242865,-2.8973121159816047,-1.6363110097094031,2.142730940706244,-1.8221806347156624,10.092606472643887,-5.428202539566196
1.0710710710710711,-0.1891903653949717,-0.24773832055894845,-0.2726425692827732,-0.41047113669711066,-0.1921078409906618,-1.3402485938101418,-1.4649091358906265,-0.9786034393956946,-0.9072498714986847,-2.9473058397262393,-1.5808732760930413,2.4415868667102503,-2.1063026090000827,9.79588097058597,-4.554493480466654
1.0810810810810811,-0.20268428777242592,-0.2622752114235916,-0.28254806554122874,-0.4190679419533625,-0.22182353874831648,-1.355703914874208,-1.4391400271304362,-1.0008903812926722,-0.8110344514625722,-2.988374632137388,-1.503307150903448,2.700047862407367,-2.337532130593473,9.413892826370217,-3.6453715672131275
1.0910910910910911,-0.21632861782276688,-0.27654200050723865,-0.2926872335500163,-0.4267221920524704,-0.2519042519532152,-1.3702673087088266,-1.4109997758982402,-1.0252131531117503,-0.7190623269031178,-3.0201759517350424,-1.4024645291497604,2.9147638320729747,-2.5124225171762826,8.948281799676595,-2.703170590398463
1.1011011011011012,-0.23011328626247574,-0.2905170813384867,-0.30307768796741985,-0.43348050965553103,-0.28225554435049516,-1.383700645379468,-1.380941608777698,-1.050991994396844,-0.6321583395170456,-3.0423920245266958,-1.2774478501910298,3.0829421776398918,-2.6282038028608494,8.402156217441814,-1.730980875820698
1.1111111111111112,-0.24402575981929397,-0.3041836287555112,-0.3137310056377825,-0.43939753822651195,-0.3127800642767074,-1.3957590988449766,-1.3494418644072017,-1.077625832602022,-0.5511044604309333,-3.054743508195051,-1.1276941643064422,3.2024986871259182,-2.683016735821083,7.780324348586693,-0.7329729127138295
1.1211211211211212,-0.25805100274475773,-0.3175297521482548,-0.3246526029335395,-0.44453554803958456,-0.34337789445478195,-1.4061941308924155,-1.3169937761650692,-1.1045003334371848,-0.4766261706530418,-3.056998621024774,-0.9530430460403391,3.2721658637769866,-2.6761153522704038,7.089479071669213,0.28531528702764186
1.1311311311311312,-0.2721715413826621,-0.3305484003835991,-0.3358418508677674,-0.44896373527197414,-0.37394697603688876,-1.4147569653202121,-1.2841006850116232,-1.1309975675963324,-0.4093744023714585,-3.048987301445947,-0.7538010470647053,3.2915919201117814,-2.6080476267897974,6.338302459686462,1.3167883419926474
1.1411411411411412,-0.28636741901202695,-0.343237631983134,-0.3472919461514041,-0.45275720269234965,-0.40438409896253347,-1.421205830790909,-1.2512617573019111,-1.1565155445097213,-0.3498997040251861,-3.0306209439904404,-0.5308379800275735,3.2615109352438956,-2.480855966963913,5.537457371899292,2.352767666382983
1.1511511511511512,-0.3006162934266016,-0.3556004799458371,-0.35899014259918277,-0.45599612236054154,-0.434585541339228,-1.4253102658406067,-1.2189637739721033,-1.180479425242955,-0.29863828560061645,-3.001903723381442,-0.28564562310860003,3.1838431520518435,-2.2981859702800027,4.699440039678758,3.38311528985828
1.1611611611611612,-0.31489362093037576,-0.3676446693166898,-0.37091819549779603,-0.45876439342056874,-0.46444808722543873,-1.4268573512748821,-1.1876695625644702,-1.2023574794168452,-0.2558942518427509,-2.9629472407128374,-0.02036682511693232,3.061742462549854,-2.065285179606273,3.8382407504870804,4.396563880945205
1.1711711711711712,-0.32917285227258103,-0.37938239662344514,-0.3830528451876899,-0.46114809064158846,-0.4938703798725654,-1.425660118077423,-1.1578016287862076,-1.2216809083966753,-0.22182443388634415,-2.9139802094326415,0.26220462134925426,2.899598617382794,-1.788896410741088,2.9688285417285014,5.381234003895874
1.1811811811811812,-0.34342568530700934,-0.39082988906243954,-0.39536642488460744,-0.46323428173393605,-0.5227537918563265,-1.4215616825469155,-1.129734563575542,-1.2380529956823423,-0.1964343017708335,-2.855350648206421,0.5586799359740348,2.7029403483035246,-1.477028321814378,2.106529437750095,6.325246178659714
1.1911911911911912,-0.3576224562838529,-0.4020067737672942,-0.40782778630343125,-0.4651092166195541,-0.5510038354062806,-1.4144417332229697,-1.1037825587464893,-1.251162134928935,-0.17957797002631115,-2.787521840236659,0.8651888307184871,2.478230555420782,-1.138576841296339,1.266274982331405,7.21742706979238
1.2012012012012012,-0.37173249457183644,-0.41293550325163697,-0.4204031050508863,-0.46685693981177256,-0.5785312342412464,-1.4042210657049774,-1.080190272383745,-1.2607896490728208,-0.17096399193805775,-2.711063160739304,1.1775248938654113,2.232608174950106,-0.7828953981208459,0.4618777971420336,8.04797031649541
1.2112112112112112,-0.38572451709474564,-0.42364066180775295,-0.43305677407719867,-0.46855802142019454,-0.6052527776763901,-1.3908628638401157,-1.0591303121957711,-1.2668096174116192,-0.17017086728489533,-2.626633715364544,1.4913241080086919,1.9735667122090268,-0.41932121841479025,-0.2946188642588885,8.808984917941554
1.2212212212212212,-0.3995671423083964,-0.4341481005153004,-0.44575248757350755,-0.4702881219508254,-0.6310922951538391,-1.374374190028965,-1.040699409025614,-1.2691875452192392,-0.1766696118441077,-2.5349581126987957,1.8022661721133684,1.7085866846791482,-0.05668944610712006,-0.9934725373744064,9.49488882231105
1.2312312312312312,-0.4132292425343396,-0.44448432164116686,-0.4584539621337517,-0.4721172139515434,-0.655981090387397,-1.3548047101987255,-1.0249202693745039,-1.2679742412754118,-0.18984412558413416,-2.4368067370192583,2.1062443426921105,1.4448270864030055,0.29704150810245733,-1.627542055357016,10.10257708910653
1.2412412412412412,-0.42668036968441486,-0.45467573268354333,-0.4711257772038247,-0.47410883751150285,-0.6798582419039634,-1.3322429475969486,-1.0117478378120885,-1.2632933763694054,-0.20902154788362295,-2.332967959765459,2.399522592953642,1.1888350615027008,0.6350927988349475,-2.1923936263257597,10.63138294027121
1.2512512512512513,-0.4398912014967299,-0.46474787367817527,-0.48373416414191694,-0.47631952732382254,-0.7026707759315367,-1.3068126271838865,-1.0010750410294498,-1.2553298280486869,-0.23349895741382543,-2.2242242821033535,2.678858566796759,0.9463150001572187,0.952056162008609,-2.686213387502981,11.082862837824447
1.2612612612612613,-0.45283375185287195,-0.4747250385105434,-0.49624736998429453,-0.4787987593023429,-0.7243734552474703,-1.2786677047142467,-0.9927416433457683,-1.2443169148511677,-0.2625646669454608,-2.1113350893547533,2.9415567658539685,0.7220262829337936,1.2439263218852659,-3.1095343434637295,11.460438694762434
1.2712712712712713,-0.4654816817980316,-0.48462972674377186,-0.508636117947009,-0.4815890438651206,-0.7449283407711553,-1.2479854707256666,-0.9865462169027411,-1.230519558528346,-0.29552428782816514,-1.9950169188884355,3.1854985697233653,0.5197208857957945,1.5080579751490957,-3.464854916363437,11.768954126719768
1.2812812812812813,-0.4778106078122209,-0.49448210762056105,-0.5208740165937391,-0.484725992745557,-0.7643044703496404,-1.2149615909627558,-0.9822545822548469,-1.2142226653453394,-0.3317174777905644,-1.8759317204135104,3.4091381490536077,0.3421415094454638,1.7430539697108758,-3.7562140489694764,12.01422354367619
1.2912912912912913,-0.4897981500314897,-0.5042999260226358,-0.5329375562829508,-0.48823876917864306,-0.7824772932578755,-1.1798052925364186,-0.9796085334256788,-1.1957213103743747,-0.37052803530431255,-1.754681531516337,3.611443760242473,0.19112205608525087,1.9485650624724875,-3.9887353780472123,12.202596014393674
1.3013013013013013,-0.5014239744491403,-0.5140984193381545,-0.5448060592270784,-0.4921507545932315,-0.7994278659554088,-1.1427336813519617,-0.9783359616188562,-1.1753092676534669,-0.41139522680120544,-1.631803284001006,3.791826857618243,0.06771097497824441,2.1250713225780697,-4.168189936151648,12.340561005564192
1.3113113113113113,-0.5126700103189701,-0.5238899468239042,-0.5564618046488397,-0.4964801053211603,-0.8151421827157562,-1.1039668222758132,-0.9781594006735252,-1.1532706641600783,-0.4538182304847344,-1.507770333495265,3.950085867883436,-0.02773243304750837,2.2736936466290536,-4.300629256160663,12.434434274067305
1.3213213213213213,-0.5235204668978483,-0.5336839601393073,-0.5678899923703167,-0.5012400002363142,-0.8296109138661616,-1.063726118579479,-0.9787989367901989,-1.1298774088908048,-0.4973569231362768,-1.3829935266562006,4.086328117794268,-0.09540195836071963,2.3960077180029695,-4.392094070277573,12.490135374316399
1.3313313313313313,-0.5339616687288582,-0.543487279611271,-0.5790783340503307,-0.5064396353170209,-0.8428284513317935,-1.0222305995656007,-0.9799790162258613,-1.1053839110592703,-0.5416307198896252,-1.2578271154848066,4.200880358002535,-0.13588270766053584,2.4938435326911823,-4.448350082180417,12.513008343338607
1.3413413413413413,-0.543982085130071,-0.5533040497266578,-0.5900169405127849,-0.5120847725329626,-0.8547923979342624,-0.9796951730231606,-0.9814314641922224,-1.0800256919757798,-0.5863138225688299,-1.1325761670964547,4.294231554035186,-0.1500495208500645,2.5691539248686173,-4.474717094100942,12.507721523204786
1.3513513513513513,-0.5535723785820866,-0.5631356642549523,-0.6006982609938459,-0.5181781247531736,-0.8655032221482353,-0.9363288534715838,-0.9828986006209971,-1.0540181422337975,-0.6311307441048704,-1.00750307711781,4.366988599570385,-0.1389880008244082,2.623918583962901,-4.4759578001308675,12.478220198582552
1.3613613613613613,-0.5627252981613257,-0.5729809493293097,-0.6111168663055203,-0.5247197420126748,-0.8749639435601124,-0.892334334200585,-0.9841340345286383,-1.027556948965602,-0.6758520564976402,-0.8828325869617174,4.419827707192445,-0.10390676713129797,2.660058989981591,-4.456206417439916,12.427717686505137
1.3713713713713713,-0.5714355062374276,-0.582836461448558,-0.6212690752198753,-0.5317077122859214,-0.8831795657176792,-0.8479077544841405,-0.9849031416234098,-1.0008196339629454,-0.7202858800404437,-0.7587614639343585,4.453451275067375,-0.046057202067830046,2.679362740467096,-4.418919241644899,12.3587031382264
1.3813813813813813,-0.5796996091375678,-0.5926964466554411,-0.6311529047734357,-0.5391383749573718,-0.890156953902997,-0.8032379620489194,-0.9849842232872411,-0.9739667967271511,-0.7642700210618539,-0.6354665078881048,4.468575637811176,0.033289948801483796,2.6834610102660417,-4.366872925096675,12.272977376793428
1.3913913913913913,-0.5875161202734807,-0.6025529069210365,-0.640767980767856,-0.5470064805002016,-0.8959047289881393,-0.758506198996606,-0.9841690136605261,-0.9471427449640236,-0.8076682381004947,-0.5131083765939379,4.465920673008313,0.13286488546180508,2.673815779397276,-4.302179156339748,12.171700541744395
1.4014014014014013,-0.5948852967834847,-0.6123958796882719,-0.6501152582350725,-0.5553055575413071,-0.9004330293954428,-0.7138869349307404,-0.9822611780139288,-0.9204784267638967,-0.8503623391204677,-0.3918389317209808,4.44619507301465,0.2514287413025851,2.6517002867393527,-4.2263013458261804,12.055438414736821
1.4114114114114114,-0.6018090916423204,-0.622213524288694,-0.6591969175910446,-0.564028039062923,-0.9037534826250921,-0.6695478496013268,-0.9790761840113842,-0.8940934538679072,-0.8922448098239116,-0.2718078527588143,4.410099571844666,0.38777117328601884,2.6182052297500698,-4.140089249779769,11.924214823387404
1.4214214214214214,-0.608291117801296,-0.6319921861118051,-0.6680163105156717,-0.5731652793802837,-0.9058792569649092,-0.6256491140809818,-0.974442346852269,-0.8680969702813116,-0.933213478643359,-0.15316734462004455,4.358336585066207,0.5406964598194217,2.574255348556133,-4.043822835880686,11.777567851567575
1.4314314314314314,-0.6143365676856761,-0.6417165319042507,-0.676577855644505,-0.5827076081057351,-0.9068250657658232,-0.5823436978483659,-0.9682001682396116,-0.8425891499927223,-0.9731675793405599,-0.03607536862620911,4.291620202217842,0.7090097189877757,2.5206258433641078,-3.9372587343231094,11.614606669772282
1.4414414414414414,-0.6199521208146058,-0.6513697067245637,-0.6848869099383699,-0.5926443755099661,-0.9066072149384644,-0.5397780577653075,-0.9602009366746095,-0.8176639231235583,-1.0120009282311766,0.07929879679885332,4.210689068108554,0.8914994936663238,2.457959844646916,-3.8196798280469024,11.434067414531636
1.4514514514514514,-0.6251458682702742,-0.6609334542609719,-0.6929497394857568,-0.6029637722289379,-0.9052438337612577,-0.49809059695910995,-0.950308967164648,-0.7934091813085363,-1.0495972925774522,0.1927711022657509,4.116323984822145,1.0869108634945182,2.386797819467765,-3.689960025115991,11.234380406494328
1.4614614614614614,-0.6299272599236857,-0.6703882019324374,-0.700773479974567,-0.6136527796340352,-0.9027549492175865,-0.45741126076608973,-0.9384021238769716,-0.7699071073098547,-1.085828464869807,0.3041413367998295,4.0093694716889905,1.2939126598800317,2.307608959307265,-3.546632858948191,11.013741671948141
1.4714714714714714,-0.6343070125170207,-0.6797132090964764,-0.7083660620399864,-0.6246970439637809,-0.8991626633432839,-0.4178617141596416,-0.9243711517715568,-0.7472360181264912,-1.1205498298137386,0.4131900359709193,3.8907535763455354,1.51106916943558,2.220821655380675,-3.3879695739089604,10.77019242113737
1.4814814814814814,-0.6382970085111953,-0.6888867204879737,-0.7157361816437452,-0.636080641795155,-0.8944914077616302,-0.37955382807419935,-0.908121762325626,-0.7254701566934406,-1.1535982269585434,0.5196775962446559,3.7615072742161555,1.7368115796824815,2.126860502365518,-3.21207400063789,10.501715017621652
1.4914914914914914,-0.6419101702924062,-0.6978861592121237,-0.7228932418539729,-0.6477859160737589,-0.8887681156463401,-0.34258804478868177,-0.889577002585339,-0.7046787955246347,-1.1847915289304474,0.6233447892310908,3.6227805131683177,1.9694153621109276,2.026182547896557,-3.016987823799643,10.206340762231683
1.5015015015015014,-0.6451603788029419,-0.706688248855467,-0.7298473157000099,-0.6597933281663232,-0.8820223728691265,-0.30705282954327034,-0.8686777973103369,-0.684926349649999,-1.213928310826406,0.7239133741768882,3.4758599644634725,2.2069754034350493,1.919317096804685,-2.8008072685395273,9.882268497708127
1.5115115115115114,-0.6480623920747951,-0.7152691294405371,-0.7366091375812474,-0.6720812020474127,-0.8742866696505115,-0.27302368380181774,-0.8453840347967322,-0.666272352163922,-1.240787629382876,0.8210871651870583,3.322183074958876,2.4473867395211286,1.8069085710350645,-2.5618150388131307,9.527997689666275
1.5215215215215214,-0.6506315666282846,-0.7236047714785662,-0.7431899521630788,-0.6846255459526785,-0.8655965383526841,-0.2405602027125816,-0.8196787703972588,-0.6487681945809906,-1.2651346506663927,0.9145592250456859,3.163327711257736,2.6883638188431327,1.6897447041603444,-2.2986197150218906,9.142473223331038
1.5315315315315314,-0.65288377560717,-0.7316710971562751,-0.749601463537666,-0.6974000161602874,-0.8559905761890908,-0.2097054549593028,-0.7915690498814307,-0.6324563386750761,-1.2867224828712076,1.0040141889395933,3.0010118263995347,2.9274436813310087,1.5687890389368726,-2.010289057233822,8.72521942530149
1.5415415415415414,-0.6548352867729634,-0.7394441467736325,-0.7558557913651865,-0.7103757232837861,-0.845510593987579,-0.18048507387248988,-0.761086696681656,-0.6173693252689794,-1.3052965133203327,1.0891340987621514,2.8370804241548107,3.1620072279937457,1.4452091988669558,-1.6964857620631644,8.276474576196946
1.5515515515515514,-0.656502568169998,-0.746900348517801,-0.7619653619383266,-0.7235211742023472,-0.8342016032698384,-0.15290586777180273,-0.7282900011275691,-0.6035273254407966,-1.3206018334325142,1.1696071542064088,2.6734747727393895,3.3893265217765007,1.3203891508412742,-1.3575839842143982,7.797304635090832
1.5615615615615615,-0.65790194142472,-0.7540170251625881,-0.7679426256959794,-0.7368024515416468,-0.8221115490589208,-0.12695457939917942,-0.6932653059321161,-0.5909344336627511,-1.3323945100416568,1.2451403009980604,2.512175988669841,3.6066517764904966,1.1959120259792015,-0.9947482068156644,7.289678122552645
1.5715715715715715,-0.6590495254229403,-0.7607724719395415,-0.7738000069941429,-0.7501832592448985,-0.8092912400053184,-0.10259799270649944,-0.6561267214405506,-0.5795782433552255,-1.340443925461713,1.3154618727314853,2.3551668762799154,3.8112670566607667,1.0735497044124882,-0.6099792520681487,6.75649659020941
1.5815815815815815,-0.6599610689982122,-0.7671461612906,-0.7795497829220491,-0.7636250195842083,-0.7957941267926031,-0.0797833928439944,-0.6170147061832238,-0.569428261180509,-1.344543170043099,1.3803335380409028,2.2043737630950897,4.000571847614151,0.9552327237451065,-0.2061172726741145,6.201577147907829
1.5915915915915915,-0.6606517039656962,-0.7731190813231223,-0.7852038373631776,-0.7770872485730103,-0.7816758139925565,-0.05843944261627437,-0.576094568499457,-0.560434129123621,-1.344518289695404,1.4395600586551833,2.061596744831044,4.172180570519776,0.8429912533402542,0.21322120062469585,5.6295642961926715
1.6016016016016015,-0.6611356771190419,-0.7786741195603273,-0.7907733445256078,-0.7905280574208394,-0.7669934620923596,-0.03847807265207297,-0.5335535144731952,-0.552524645136847,-1.3402365617602574,1.4929977628324693,1.9284379796169424,4.324024739406622,0.7388769551984791,0.6437650392687587,5.045777906870105
1.6116116116116117,-0.6614263131504912,-0.7837960969789354,-0.7962687136932444,-0.8039043148590764,-0.7518055716639197,-0.01979561175996346,-0.48959883080985633,-0.5456081179785075,-1.3316087225879887,1.5405568237527039,1.806255363604277,4.454410770708592,0.6449027466595436,1.080736493261187,4.45602522872035
1.6216216216216217,-0.6615358670694551,-0.7884719219735953,-0.801699372749304,-0.8171722526465593,-0.7361712050525258,-0.0022765823772402383,-0.4444519800604191,-0.539573491031496,-1.318595712645763,1.5822077887782007,1.696114323297538,4.562080052188354,0.5629631022522862,1.5190559686682024,3.866355193075143
1.6316316316316317,-0.6614753617672601,-0.7926908223374133,-0.8070735044176591,-0.8302880255663578,-0.7201493617641092,0.014203330010514246,-0.3983443798401964,-0.5342917478781619,-1.3012098792491391,1.6179817190287964,1.598752528368249,4.646253395762655,0.4947531366527133,1.9535650297939888,3.2827972828346064
1.6416416416416417,-0.661254547768005,-0.7964443716628261,-0.8123979315073211,-0.8432081221348747,-0.7037984865184198,0.02977444251259199,-0.3515132645336088,-0.5296179170103029,-1.279514791935909,1.6479690890079366,1.514569184176383,4.706635207585611,0.4417110941438575,2.3792425838803988,2.7111071440456587
1.6516516516516517,-0.6608818674190687,-0.7997265035539624,-0.8176779702401815,-0.8558899243900484,-0.6871758191721544,0.044569288174052375,-0.3041963439017439,-0.5253942348642534,-1.2536225543654695,1.672315355977651,1.443631800618405,4.743394790894979,0.40497037371701694,2.791411999829191,2.156528664629143
1.6616616616616617,-0.6603644227955486,-0.8025335442135899,-0.822917280592242,-0.8682921854253288,-0.6703368756989174,0.05871937851302086,-0.256627246955381,-0.5214533529147346,-1.2236896023824217,1.6912150647673998,1.3856972750196364,4.757129549497715,0.3853281624480865,3.185913868032107,1.6236001395858541
1.6716716716716717,-0.6597080261354636,-0.8048641038680627,-0.8281178376279684,-0.8803753828472454,-0.6533350457848249,0.07235265633662329,-0.20903213705141405,-0.5176213523828815,-1.1899112905518168,1.7049045734474033,1.3402511235851375,4.748801077368142,0.38324148536673414,3.559230991558163,1.116015980479916
1.6816816816816818,-0.6589172411708584,-0.8067190000145877,-0.8332798485405104,-0.8921021489257044,-0.6362211511350863,0.08559049696789348,-0.16162566330723607,-0.5137217869743373,-1.152513879385875,1.713651715677423,1.306555745868983,4.71966431158973,0.3988342019587164,3.9085684953175868,0.6365470330155252
1.6916916916916918,-0.6579954446824883,-0.8081011526531745,-0.8384017432712889,-0.903437499062156,-0.6190432189012032,0.09854607556343759,-0.11460882983920784,-0.509578351936726,-1.111748443157952,1.7177481047644187,1.2837014059067278,4.67119273249582,0.43192333426806456,4.231881497332574,0.18702159679255884
1.7017017017017018,-0.6569449396873568,-0.8090153961932754,-0.8434802223789023,-0.9143490314735523,-0.601846297156331,0.1113229736025783,-0.06816740841279591,-0.5050177695287581,-1.0678828851822075,1.7174990600733901,1.2706625256604744,4.604998463513321,0.4820589160225882,4.527857315706974,-0.23163910323392803
1.7117117117117118,-0.6557670445021037,-0.8094683463098444,-0.8485102636997,-0.9248071083898998,-0.584672325814355,0.12401392179843061,-0.02247025924945969,-0.49987283111820957,-1.02119408722974,1.7132141113556403,1.2663481178742955,4.52276484204421,0.5485655051419771,4.795863793177374,-0.61934274110311
1.7217217217217218,-0.6544621931204978,-0.8094682404761246,-0.8534852032331891,-0.9347848776540676,-0.567560152548401,0.1367006608465735,0.022330620262430448,-0.4939837452342149,-0.9719629595990285,1.7052009394413594,1.2696447042142733,4.426188312518349,0.6305901599783459,5.035871304195079,-0.976719409368588
1.7317317317317318,-0.6530300698590006,-0.8090247329287875,-0.8583968402787292,-0.9442582738332821,-0.5505456106270923,0.1494539601983537,0.06609981588575281,-0.4871998855968038,-0.9204677791489376,1.6937573959859336,1.2794556412277849,4.316927602946337,0.7271501475603463,5.2483563977770125,-1.3049931833539072
1.7417417417417418,-0.6514697010081313,-0.8081487578306651,-0.8632355048533981,-0.9532060069556207,-0.5336616010151818,0.16233364076116708,0.10871852262674536,-0.4793812169032682,-0.8669797014151704,1.67916648740483,1.2947276854463132,4.196571814720663,0.8371726813576865,5.434204055790078,-1.605851854094686
1.7517517517517518,-0.6497795597207191,-0.806852369650258,-0.8679901775320267,-0.9616094486029813,-0.5169382787117938,0.1753893342021936,0.15008326967443414,-0.4703985290053622,-0.8117597812665538,1.6616929177008273,1.3144699635453494,4.066617714377553,0.959532364661589,5.594609783745412,-1.8813194484946727
1.7617617617617618,-0.6479576800828644,-0.8051485718004061,-0.872648614109233,-0.9694525034168106,-0.5004032802113583,0.18866121287889184,0.19010490192096208,-0.4601340033060141,-0.7550557169791048,1.6415797132476406,1.3377667591969216,3.928455594084846,1.0930824635065552,5.730988177552734,-2.133637431856745
1.7717717717717718,-0.6460017348327526,-0.8030511951548968,-0.8771974414025936,-0.9767215018151444,-0.4840818952122422,0.20218051806237056,0.22870792987470637,-0.4484814993619528,-0.6971002381381837,1.6190468251535006,1.3637812551746729,3.7833671700716556,1.2366771650895056,5.84489636966338,-2.3651647623068213
1.7817817817817818,-0.6439091177254069,-0.8005747794065221,-0.8816222726416006,-0.9834050202803478,-0.4679973376058921,0.21597062359994273,0.2658288995519991,-0.4353460211772599,-0.6381102480841596,1.594290414436564,1.3917547618207609,3.632528532289445,1.3891895602365205,5.937967824330387,-2.5782927490205543
1.7917917917917918,-0.6416770383660082,-0.7977344195441376,-0.8859078462466056,-0.9894937001611916,-0.45217101028939943,0.23004774614609438,0.3014155818413955,-0.4206437428322261,-0.5782860463177029,1.567482890380289,1.4210034967845642,3.477014240931628,1.5495264582417652,6.01185976559239,-2.7753783255585853
1.8018018018018018,-0.6393025717405305,-0.794545684276454,-0.8900381052717593,-0.994980139320656,-0.43662265437654496,0.2444213622143143,0.33542644215060324,-0.4043018531339029,-0.5178112287111759,1.5387732810826804,1.4509104678688094,3.317808697805797,1.716634850948468,6.068216034576985,-2.9586964572381893
1.8118118118118118,-0.6367827182466629,-0.7910245344309782,-0.8939963007507417,-0.9998586860291224,-0.4213706490246968,0.2590952645054351,0.36782901418375663,-0.38625755939112105,-0.4568533075419946,1.5082883949061752,1.4809165134789295,3.155817128234092,1.8895076033420952,6.108637996250704,-3.1304044769221693
1.8218218218218218,-0.6341144783090624,-0.7871871932940961,-0.8977651248410596,-1.004125255593881,-0.4064322487025428,0.2740679678921445,0.398599444448404,-0.3664578253808294,-0.39556418181175085,1.4761344385432267,1.5105123420585997,2.991872732858094,2.0671893242620505,6.134665886532944,-3.292521152398917
1.8318318318318318,-0.6312948966917781,-0.7830500655070809,-0.9013267919793825,-1.0077772314908866,-0.3918237002100147,0.28933288107965655,0.42772230122050264,-0.3448592481568245,-0.33408038863218187,1.4423978936149304,1.5392295152826503,2.826746203020793,2.2487773411701752,6.147769186612327,-3.4469171412766277
1.8418418418418419,-0.6283210981697827,-0.7786296907736087,-0.9046631112812191,-1.0108133023750545,-0.3775604676841438,0.30487894680190586,0.4551894768378307,-0.32142710913929845,-0.2725241604402405,1.407147153574761,1.5666311962171056,2.6611554150902412,2.433421788888394,6.1493414923483325,-3.595311632808754
1.8518518518518519,-0.6251903279240885,-0.7739426854996773,-0.9077555649892911,-1.013233303294671,-0.3636574451687545,0.3206910380287822,0.4809995024190814,-0.2961346752371321,-0.21100439728979095,1.3704343168005735,1.5923043706853228,2.4957723380438894,2.6203261313015607,6.140699801353358,-3.739275255318038
1.8618618618618619,-0.6219000259946343,-0.7690056005979005,-0.9105854487026299,-1.015038062870161,-0.350129099967229,0.33674989714091347,0.5051575516221504,-0.2689629643564067,-0.14961721294945068,1.3322967621641473,1.6158561037653192,2.3312223614328067,2.8087516932466863,6.1230859806607585,-3.880238178770556
1.8718718718718719,-0.6184478447339152,-0.7638348935294229,-0.9131339039584152,-1.0162293505113895,-0.33698953126397757,0.35303222386249555,0.5276752197417228,-0.23990048171117406,-0.08844623387127376,1.2927576763778108,1.6369074812583915,2.168090327083442,2.998015079999239,6.097672021532754,-4.019500790817016
1.8818818818818819,-0.6148316701182243,-0.7584469204078805,-0.9153819590901264,-1.0168097135338003,-0.32425269888685254,0.3695111759323993,0.5485694221199413,-0.20894201730282044,-0.027563947999415236,1.251827990515395,1.655088193070399,2.0069257945649013,3.1874868052369503,6.065564885489378,-4.158243308861922
1.8918918918918919,-0.6110496695170959,-0.7528578593560952,-0.917310607111008,-1.016782362812081,-0.3119325314314921,0.3861562914676296,0.5678622846711746,-0.17608825982886384,0.032967783160321645,1.2095075546840792,1.6700345205724993,1.848242833097013,3.376592332482662,6.027811897331495,-4.297537454210679
1.901901901901902,-0.6071003604307668,-0.7470835866745438,-0.9189009230987104,-1.016151047727022,-0.30004301452483095,0.40293339458713506,0.5855810097717695,-0.14134540946042579,0.09309735776198036,1.1657861103266622,1.6813900238824826,1.6925158773923092,3.564815335908371,5.98540507644581,-4.4383575948147245
1.911911911911912,-0.6029826192611053,-0.7411396694397432,-0.92013407523264,-1.0149200216330745,-0.2885982293491249,0.41980466255131205,0.6017576601976182,-0.1047249145473427,0.15278320816981888,1.1206436158581488,1.6888029538556828,1.5401836915092948,3.7516938790940917,5.939287698386469,-4.581591337009757
1.921921921921922,-0.5986956958161347,-0.7350413884563928,-0.9209913251735871,-1.0130939064814442,-0.27761253812723247,0.4367289253793425,0.6164282166565519,-0.06624228988332603,0.21199268276660427,1.0740517851144527,1.6919236568580136,1.3916545154076696,3.936816339148577,5.890359375139121,-4.7280464001859475
1.931931931931932,-0.5942392685888012,-0.7288036531696231,-0.921454101303308,-1.0106776006850322,-0.26710063688442665,0.45366152180715713,0.6296325831351425,-0.02591688257618778,0.270701869362548,1.025974732105452,1.6904059316192446,1.2473044044200616,4.11982121213509,5.839480184499283,-4.87845819362113
1.941941941941942,-0.5896135046455678,-0.7224409041576951,-0.9215040868778702,-1.007676177641152,-0.2570776093967448,0.47055430414037835,0.6414143033291105,0.016228564505712917,0.32889536772786004,0.9763695450402112,1.6839092585064057,1.107475098557192,4.300397030712009,5.787473645869442,-5.0334952211422195
1.951951951951952,-0.5848190804261078,-0.7159670931562436,-0.9211232389567402,-1.0040948333318551,-0.24755896706326103,0.4873557173363251,0.651820303422212,0.060168241324659456,0.38656604961645713,0.9251867146150412,1.672098365851714,0.9724779708053332,4.478277448761539,5.7351310054743445,-5.193763102669288
1.961961961961962,-0.5798571580667122,-0.7093957876407098,-0.9202937003380263,-0.9999388330705301,-0.2385607766124705,0.504010899240212,0.6609004170330749,0.10587398303413574,0.44371436868793196,0.8723709793465138,1.6546386280939915,0.8426068850815108,4.653229917812035,5.6832166958007795,-5.3598056455568654
1.971971971971972,-0.5747294627476089,-0.7027400637300741,-0.9189978846183856,-0.9952133891538562,-0.2300997036231493,0.520461652826718,0.6687073224064691,0.15331551743885174,0.5003482051476018,0.817862140086816,1.6311990451598,0.7181370744029912,4.825054309519681,5.632469826130502,-5.532105301018678
1.981981981981982,-0.5694383609538471,-0.6960123787697053,-0.9172185843422003,-0.9899235487221705,-0.2221930340710585,0.5366465193870903,0.6752963215712976,0.20246076603405136,0.5564827380796016,0.7615957060730145,1.6014558888277701,0.5993235092962134,4.993581766279574,5.583604538490768,-5.711081504038959
1.991991991991992,-0.5639868609680988,-0.6892245707795951,-0.9149389714724708,-0.9840741926878569,-0.21485867476344586,0.5525007805392667,0.6807253369443865,0.25327584829751454,0.6121404412684903,0.7035029055539745,1.5650911369566376,0.48640943511074136,5.158665873443313,5.537312833835544,-5.897087743600652
2.002002002002002,-0.558378622336934,-0.6823879023981301,-0.9121425541375312,-0.9776699556445612,-0.20811523095932669,0.567956622136192,0.6850546121526065,0.3057255467538338,0.6673505556311639,0.6435117661170114,1.5217898138045105,0.3796380242178288,5.320171876135035,5.494266409420906,-6.090405308893439
2.012012012012012,-0.5526179499790663,-0.6755131547699152,-0.9088130752170818,-0.9707151750514763,-0.20198211189251325,0.5829429625877028,0.6883468719793687,0.3597734807704421,0.7221488062135974,0.5815477970764342,1.4712353347670668,0.2792684939906912,5.477962156493138,5.455118671790311,-6.291234794409059
2.022022022022022,-0.5467099017411339,-0.6686104215439654,-0.9049346848401799,-0.9632137694723275,-0.19647946188338283,0.5973855689476734,0.6906676783410636,0.41538170819416076,0.7765773235207716,0.5175353577182434,1.4131154292028971,0.18557254449727167,5.631896279765566,5.420500274339233,-6.49968596694739
2.032032032032032,-0.5406603227013492,-0.6616890571157654,-0.9004919853777217,-0.9551691765490635,-0.19162815926463697,0.6112072092479112,0.6920853343115643,0.47251082281861123,0.8306844128941949,0.4513984228999266,1.3471225737214076,0.09884248826402144,5.78182220078791,5.391014897211797,-6.715762991680668
2.042042042042042,-0.5344758467849864,-0.6547576799956342,-0.8954700268874692,-0.9465843435333033,-0.18744981626142984,0.6243276667525373,0.6926709591580293,0.5311199029919511,0.8845244397016894,0.3830609092576899,1.2729521924684435,0.019404587522672875,5.927563162116543,5.367234385167794,-6.939346121383663
2.052052052052052,-0.5281638982474572,-0.647824265157393,-0.8898541951565258,-0.9374616558232667,-0.18396684120307977,0.6366635710406469,0.6924992996364925,0.5911660961358763,0.9381572266580821,0.3124487387241077,1.1902983818936883,-0.05236058775055331,6.068899018693489,5.3496924427902055,-7.170167990407688
2.062062062062062,-0.5217327409680587,-0.6408960675846695,-0.8836302591023624,-0.9278028860702427,-0.181202404573232,0.6481282651574365,0.6916494842093724,0.6526039699092194,0.9916478686909368,0.23949108815107534,1.0988559423578512,-0.11600762878371737,6.205553561292602,5.338871902958833,-7.407784182021892
2.0720720720720722,-0.5151915488985166,-0.6339794483824389,-0.8767845335569188,-0.9176091034813525,-0.179180291652547,0.6586322760287159,0.690205588646535,0.7153847497980144,1.0450655148794086,0.16412382099736028,0.9983267928019217,-0.17102111404203105,6.337185737004264,5.335184363960958,-7.651534891069818
2.0820820820820822,-0.5085504107164657,-0.6270798652996971,-0.8693038878123982,-0.9068806642141911,-0.1779248893065703,0.6680833621582032,0.6882567309057586,0.7794562180714711,1.0984831838465619,0.08628996766072591,0.888421181489783,-0.21679727758057082,6.463368948601646,5.338947707617003,-7.900498841769385
2.0920920920920922,-0.5018203373846813,-0.6202018874580523,-0.8611757059585861,-0.8956171927305989,-0.1774611213771599,0.676386394106276,0.685898563279055,0.8447614276823121,1.151976530447629,0.0059431037053846725,0.7688596702480002,-0.2526213909751951,6.58356490503186,5.350357986431936,-8.153435468107899
2.1021021021021022,-0.4950133008013684,-0.6133491644022576,-0.8523878703253125,-0.883817549310038,-0.17781439921751566,0.6834430169135829,0.683234933023722,0.91123732397008,1.2056230994467392,-0.07694994186077642,0.6393792730471586,-0.2776464443806217,6.697094837777082,5.3694525397060735,-8.40871469943417
2.1121121121121122,-0.4881422824657184,-0.6065241806179547,-0.842929017819228,-0.8714798297731887,-0.17901024127849005,0.6891527793697118,0.6803792543600519,0.9788126033949498,1.2594985857960281,-0.16240122886654584,0.49975047717762,-0.29088414407659596,6.803117707963182,5.3960564990390845,-8.664225893654558
2.1221221221221223,-0.481221279234148,-0.5997282146063725,-0.8327885834624241,-0.8586013671682291,-0.1810741863239032,0.6934133809226614,0.6774549301804816,1.0474071423265676,1.3136758658166425,-0.2503996476467403,0.34979030602667877,-0.2911814677673022,6.900592704794796,5.429723518450996,-8.917275710912325
2.1321321321321323,-0.4742653084729579,-0.5929612872100749,-0.8219568262521025,-0.845178792750162,-0.1840315660005275,0.6961209129406174,0.6745975760483689,1.1169295333002542,1.3682221195888005,-0.3409046667250023,0.18938149015564068,-0.27719526777269604,6.988232950591058,5.469664785236887,-9.164463383407819
2.1421421421421423,-0.4672904532776982,-0.5862220342812889,-0.8104248992849057,-0.8312080914599443,-0.18790722721709785,0.6971699723018484,0.6719579537575765,1.1872739385347542,1.4231956459176975,-0.43383899938476045,0.018502527419161086,-0.2473729642490813,7.06445483286204,5.514663081040175,-9.401534375496041
2.1521521521521523,-0.4603138356511109,-0.5795074160952024,-0.7981852148587699,-0.8166848083157717,-0.19272477271393754,0.6964564986110745,0.6697038361161863,1.2583158373759429,1.478637561041221,-0.5290734914291817,-0.16272679927388178,-0.19994546558901352,7.127328862841232,5.562963443233773,-9.62320172875046
2.1621621621621623,-0.4533535992456033,-0.5728126480377844,-0.7852315359208779,-0.8016041257630344,-0.1985063184194213,0.6938786503397735,0.66802076331247,1.32991050908181,1.534569060657403,-0.6264220847155151,-0.3539984999216023,-0.132914262681961,7.174516845824371,5.612161232796307,-9.82296638498345
2.1721721721721723,-0.44642889786093876,-0.5661310271231119,-0.771559133574392,-0.785961114134247,-0.20527188201239505,0.689338332058493,0.6671155299725439,1.4018878551189804,1.5909845825850437,-0.725628535871636,-0.5547491129240879,-0.04405358968791255,7.203203139023685,5.65907814566331,-9.992914101505304
2.1821821821821823,-0.43955988484882075,-0.5594536461362317,-0.7571650839087327,-0.7697510525063395,-0.2130385668140178,0.6827437779465113,0.6672193244773592,1.474046548494947,1.647843333076691,-0.8263504678779897,-0.7640698830488939,0.06906001347977024,7.210031789685169,5.699631129346235,-10.123508482134177
2.1921921921921923,-0.4327674918664321,-0.5527690829556604,-0.7420488346953517,-0.7529700444082713,-0.2218190857870765,0.6740168442189387,0.6685879298175398,1.546147023136447,1.7050542400570774,-0.9281340664032586,-0.9805981248895244,0.20899309675147312,7.191051495564553,5.728700487399363,-10.203391071716066
2.2022022022022023,-0.42607336272305685,-0.5460633373799907,-0.7262123336179834,-0.7356151996110524,-0.23162136694854635,0.6630949396647057,0.6715017012134838,1.6179095816836297,1.7624723670095115,-1.0304079670607313,-1.2024032623423793,0.3783712461262477,7.141677172222715,5.740042381572506,-10.219265203730918
2.2122122122122123,-0.41949973260740403,-0.5393194540262044,-0.7096604959689332,-0.717685357873196,-0.24244706021157347,0.649936809777022,0.6762687283003568,1.689004865364073,1.8198853069795193,-1.1324584760462408,-1.4268333955602448,0.5797239306724751,7.056683787532248,5.726238567879127,-10.155840522358776
2.2222222222222223,-0.41306913997935757,-0.5325171714446062,-0.6924018657264466,-0.6991819480359303,-0.2542897355108936,0.6345318703845273,0.6832222016854498,1.7590469447936896,1.8770000505860605,-1.2334075545428105,-1.650354761047199,0.8152597208948423,6.930263363488335,5.678732609355658,-9.99594353643316
2.2322322322322323,-0.40680383242991386,-0.5256328456022424,-0.6744493088006052,-0.6801100222763434,-0.26713278851731864,0.6169137354263258,0.6927110082986038,1.8275894166516289,1.9334302307254128,-1.3321939591556426,-1.8684135360792957,1.0865883421177651,6.756154043311561,5.588001487922579,-9.720869508889592
2.2422422422422423,-0.4007255545239265,-0.518639451965157,-0.6558202207675397,-0.6604786176006748,-0.2809487508208891,0.5971643351244307,0.7050956330243902,1.8941251802946157,1.9886948434953993,-1.4275718137255022,-2.0753173837493573,1.3943538615925029,6.527877209476179,5.443897974474491,-9.311032476170253
2.2522522522522523,-0.394855126515353,-0.5115060614269782,-0.6365374693696402,-0.6403021668761559,-0.2956965804170879,0.5754273499667688,0.720742301073296,1.9580774962756105,2.0422056098397636,-1.5180885230449503,-2.2641232092852857,1.737734582248118,6.239117955051541,5.236195791632545,-8.746972592717759
2.2622622622622623,-0.3892114839520451,-0.5041981137507905,-0.6166301293029864,-0.6196016395750542,-0.31131945891565793,0.551923065094092,0.7399975199840964,2.0188102621320057,2.0932769828304805,-1.6021072615655616,-2.426697055400893,2.113961553917307,5.884259739927563,4.955425023457338,-8.010892913295105
2.2722722722722724,-0.3838105985621417,-0.49667811813851825,-0.5961338795819608,-0.5984054010183041,-0.3277431938289662,0.5269613738576397,0.7631596635355724,2.075643409701699,2.14114256989241,-1.6778418266498607,-2.55393492133848,2.5178936536615972,5.459027730070334,4.593926556836158,-7.088572448485544
2.2822822822822824,-0.37866518830181983,-0.4889058136362178,-0.5750911405737956,-0.5767494631567132,-0.34487576891041116,0.5009433803543525,0.7904707733938492,2.1278591482967557,2.184965221716432,-1.7433754728741113,-2.636056180644696,2.9415920716654074,4.961225308172809,4.146989573208895,-5.971428958480616
2.2922922922922924,-0.3737835156331523,-0.4808385962180542,-0.5535519105660098,-0.5546787419523506,-0.36260499548698666,0.47437136079820896,0.8220792420780325,2.174727677387231,2.223878536068983,-1.7967379138589015,-2.6631682613161574,3.3740985318079737,4.391546857258533,3.6141285897033195,-4.658876079090373
2.3023023023023024,-0.36916818750535657,-0.4724332539989567,-0.5315732685598502,-0.5322465860826157,-0.3807994259535057,0.44784164956646266,0.8580053569472053,2.215549872049496,2.2570460688119764,-1.8360190670932601,-2.626096781877293,3.801690888826945,3.7541955611482205,3.000116919711774,-3.1602569292559703
2.3123123123123124,-0.3648153430959479,-0.4636472680556045,-0.5092188903040197,-0.5095143508396611,-0.39930924847269933,0.42203602184495814,0.8981205517140005,2.2496872158295362,2.28370519191255,-1.859452705241441,-2.517242409939964,4.208454825573122,3.057227559213112,2.315542288555768,-1.4959541215252645
2.3223223223223224,-0.36071408628997415,-0.45443988196945767,-0.48655860037823967,-0.4865506029220344,-0.417967749759075,0.3977031880255037,0.9421315818327289,2.27659673464734,2.3032227748486442,-1.8655211246142107,-2.3314270733099955,4.577203450263833,2.3125577878613504,1.5767167256680301,0.30258127483222447
2.3323323323323324,-0.356845804061789,-0.4447742771731664,-0.4636668846645377,-0.46342913341981756,-0.4365951568902739,0.37562499949919603,0.9895722564215641,2.295875666896833,2.315159723310058,-1.8530824125752814,-2.0666931268034032,4.890908428124198,1.5354038636107863,0.8047480897645991,2.1942893092331555
2.3423423423423424,-0.35318394360263516,-0.4346192631860838,-0.4406213834017074,-0.440227058282389,-0.45500242706032157,0.3565855178435312,1.0398132432450369,2.3072851649017716,2.3193035520236016,-1.8214392283453482,-1.7247340522644727,5.1342129306941855,0.7432629638663865,0.023837489243929953,4.131354965935487
2.3523523523523524,-0.3496942822739075,-0.4239504416362162,-0.41750145146817597,-0.41702254269474087,-0.472995598415868,0.34133585201724626,1.092082725518479,2.310767691974568,2.315691246522184,-1.7703913439344143,-1.310908926680331,5.294801300309731,-0.04539697687132548,-0.7409787193993858,6.0630682700409455
2.3623623623623624,-0.34633548430311395,-0.41275182890607465,-0.3943858610002548,-0.3938918804277875,-0.49038182213789105,0.33055283021915727,1.1455109805135115,2.3064479823908677,2.3046016233887423,-1.7002394399211211,-0.8338672156883505,5.364551011817586,-0.8126685961007118,-1.466293843877762,7.94019198946944
2.3723723723723724,-0.34305978447988034,-0.4010165137478273,-0.37135136401546565,-0.37090765446740787,-0.5069732671516692,0.3248152951882849,1.19916697457431,2.2946227150690106,2.286533240739257,-1.6117568744246806,-0.30480670897816603,5.340084717608194,-1.54254350520227,-2.1324801648001834,9.718867521571816
2.3823823823823824,-0.3398142900680699,-0.38874687363469385,-0.3484710462339956,-0.3481365068522182,-0.5225919350926356,0.3245815987761017,1.2521091137124924,2.2757351932293384,2.262155156556579,-1.506115815223013,0.2635135083203414,5.222735578042664,-2.221939129647113,-2.72527711419307,11.363661874950296
2.3923923923923924,-0.3365421978025493,-0.3759546442218666,-0.3258128366533894,-0.32563773484228314,-0.5370733506211474,0.3301775699021276,1.3034342494920432,2.250340080429326,2.232245861528378,-1.3847883455165861,0.8577682908241105,5.018050295625097,-2.841314650886123,-3.2365281345291,12.849248028294598
2.4024024024024024,-0.3331840218176747,-0.36266028328643307,-0.3034387845438533,-0.30346256232601243,-0.55026870382717,0.3417970472579428,1.3523087853344333,2.219072171171229,2.19763936158016,-1.2494553849352443,1.464958139325608,4.7348966140957565,-3.3947836043194406,-3.664120519573363,14.160714212800332
2.4124124124124124,-0.32967906684107096,-0.3488920221069943,-0.2814043256280801,-0.2816538726917198,-0.5620466424794546,0.35950919556832356,1.3980018137884476,2.1826051703037566,2.1591593586770568,-1.1018907817070478,2.073121287262865,4.384385286407259,-3.879868204353635,-4.01124309498593,15.292717560111946
2.4224224224224224,-0.32596646535072865,-0.3346849153685757,-0.25975804634939914,-0.2602464895816878,-0.5722937489805736,0.38326910454505225,1.4399007796557222,2.1416238484189893,2.1175781881743707,-0.9438849015310574,2.671756665904149,3.9788562528087295,-4.297003715471205,-4.285251294816729,16.247907507348042
2.4324324324324325,-0.3219862904296228,-0.32007948650230744,-0.2385417987277868,-0.23926796565411126,-0.5809141938750194,0.4129363660302561,1.4775172342776037,2.0967969948319176,2.0735786842951223,-0.7771689484652491,3.252052423203181,3.5309384221763134,-4.648895458241703,-4.496345821136277,17.034956466719375
2.4424424424424425,-0.3176804960718432,-0.3051204819455124,-0.2177908589651886,-0.21873956534361094,-0.5878290249451505,0.44829044875767526,1.5104893448811878,2.048756223411961,2.027732117193208,-0.6033635983695262,3.8069206436215683,3.0528371361761524,-4.939884310087104,-4.656298114452581,17.66660397863666
2.4524524524524525,-0.3129934884593072,-0.28985577422897535,-0.19753441762456325,-0.19867736549046205,-0.5929748756398311,0.4890476175886327,1.5385725394243053,1.9980854734236349,1.9804890506815567,-0.4239511655348522,4.330887418722016,2.555854559885278,-5.175361531826447,-4.777362234522334,18.157922721526006
2.4624624624624625,-0.3078728063737872,-0.2743350311469419,-0.1777961619200352,-0.17909367173212098,-0.596302270855282,0.5348782657755355,1.5616281926881312,1.9453109839735823,1.9321792657932282,-0.24025669395663363,4.81994219960898,2.050056375882661,-5.361272179614842,-4.871402479142506,18.524895440181727
2.4724724724724725,-0.30226951877474745,-0.25860883469467605,-0.15859473395964246,-0.15999795055625687,-0.5977743971791782,0.5854174627235736,1.5796141065967255,1.8908976327753695,1.8830176085848025,-0.05344445230525449,5.271326883887327,1.5441527026709347,-5.503745291592828,-4.949295011402998,18.783394078173416
2.4824824824824825,-0.2961383404470374,-0.24272790700125482,-0.1399444514978242,-0.14139806468372554,-0.5973652468030736,0.6402786372999789,1.5925668845006122,1.8352503698155354,1.8331160568124782,0.1354760731944012,5.683308228690435,1.0454979040845997,-5.608812344072234,-5.020533278587809,18.948456092202044
2.4924924924924925,-0.28943800789835333,-0.22674210695427302,-0.12185594071023247,-0.123301292936172,-0.5950580383382547,0.6990629516204736,1.6005892265660475,1.7787149724145814,1.7825018692693806,0.32563835712023037,6.054997769253374,0.5601262923261191,-5.682201551714854,-5.093017045547835,19.033854111236
2.5025025025025025,-0.2821313466974118,-0.21069998657092412,-0.10433655765777143,-0.10571488422054992,-0.5908442348155566,0.7613647893357426,1.603840739713464,1.7215807695185883,1.7311291023458448,0.5163090445839281,6.386148035000265,0.0929050787582339,-5.7292199870429155,-5.1729802391398385,19.051868672392562
2.5125125125125125,-0.27418510120214007,-0.1946484171302753,-0.0873910489930782,-0.08864690725066761,-0.5847219189421542,0.8267791468013725,1.6025228983483422,1.6640876029533684,1.678898152100667,0.7068684402503518,6.676958276147565,-0.35228270824649727,-5.754677014482289,-5.26499666347209,19.01319131618193
2.5225225225225225,-0.2655701463388321,-0.1786319333214906,-0.07102203227121044,-0.07210662258022289,-0.5766948345339452,0.8949047168315143,1.5968716928801665,1.6064298132234602,1.6256733261435234,0.896794899062998,6.9279373294748625,-0.7723927196804815,-5.762829256547381,-5.3720488317650075,18.926932489174273
2.5325325325325325,-0.25626139486027527,-0.16269254329509955,-0.055230346433519435,-0.05610473483481763,-0.5667716293533701,0.965346012761059,1.5871510942119358,1.5487611253355633,1.5712949317451865,1.0856522256123533,7.139743301497021,-1.165016297248976,-5.757370454335585,-5.495616919673825,18.80066116162461
2.5425425425425425,-0.24623750820102883,-0.14686972318328512,-0.040015437358555464,-0.04065367235358384,-0.5549648816929866,1.0377141666260692,1.5736464237121053,1.4912017330134995,1.5155951942641033,1.273072001501828,7.313021614499245,-1.5281644912426262,-5.741442336481127,-5.63576915176899,18.64046315322266
2.5525525525525525,-0.23548113347744118,-0.13119979756691738,-0.0253757675582078,-0.025767446133552037,-0.5412905506999196,1.1116261330676007,1.5566611043643659,1.433843772668001,1.4584150650409442,1.4587373028367892,7.448310683430142,-1.860151356355166,-5.717613794813002,-5.791256266817153,18.45100396009513
2.5625625625625625,-0.22397881646760395,-0.11571590586111329,-0.011308965138760426,-0.01146158847110736,-0.5257676777399357,1.1867037248082377,1.5365150974675936,1.3767549634546896,1.3996116520748196,1.642374174659777,7.545908298937064,-2.1594179971875507,-5.687903329424385,-5.959573422627105,18.235542124111625
2.5725725725725725,-0.21172068641261518,-0.10044814149321832,0.00218795702316674,0.002247013086146662,-0.5084177924208706,1.2625695398747672,1.513543922765,1.319986354182025,1.3390736581545404,1.823732988747801,7.605728429423914,-2.4243502123878775,-5.653802901807534,-6.137000586566229,17.995924730238485
2.5825825825825826,-0.19870076623818475,-0.08542301188472089,0.015118398206848054,0.015340663726676071,-0.4892649015148259,1.3388427156535645,1.4880999567884143,1.2635771332678623,1.2767344455750385,2.002573949396884,7.627223758656616,-2.653208485667714,-5.616256730073324,-6.318628995621179,17.732542467042872
2.5925925925925926,-0.18491696456502632,-0.07066336352404393,0.0274860981735649,0.02780121949275345,-0.46833543054977006,1.415135093467259,1.4605534832139218,1.207559098628706,1.2125811081219686,2.1786553715552843,7.60927535042456,-2.8440187794135476,-5.575665827883904,-6.498351472246548,17.444225686933244
2.6026026026026026,-0.17037101915926786,-0.05618839856625252,0.03929515369839161,0.03961067248675865,-0.4456582486632016,1.491043231522776,1.4312970806614789,1.1519627124419218,1.1466678664477366,2.3517154030655076,7.550084441683163,-2.994472975616061,-5.531889296182274,-6.668835438635252,17.128112513131235
2.6126126126126126,-0.15506892638685355,-0.042013115307296324,0.0505499506210747,0.050752090440917684,-0.4212651165604476,1.5661418933491977,1.400747613542019,1.0968235393994819,1.0791300932401429,2.5214523467645913,7.4471273082187555,-3.1019401620927165,-5.484193190452556,-6.821501510500845,16.779490779506638
2.6226226226226226,-0.13902104784009664,-0.028148224539323953,0.0612552539322543,0.06121022937737086,-0.3951910076106752,1.6399778799705196,1.3693492558697726,1.0421868309833973,1.0101937551549023,2.687509847829365,7.2970985235510515,-3.1634545269807792,-5.4312325703168955,-6.9464962997424955,16.391617971478798
2.6326326326326326,-0.12224238064513618,-0.014599956404334292,0.07141641872259177,0.07097259300875106,-0.3674748086269941,1.7120595600120858,1.3375791616634138,0.9881142064997621,0.940190180662016,2.849452813231863,7.095905727108376,-3.1757656474413376,-5.371018117617964,-7.03270482537478,15.955580897833107
2.6426426426426426,-0.10475319209833002,-0.0013694462129140894,0.08103950322554598,0.0800307634824112,-0.3381604058711483,1.7818512474410042,1.3059460618349574,0.9346919606602443,0.8695690222321686,3.0067433863377726,6.838766084063278,-3.135522126997569,-5.30084553823828,-7.067848839530472,15.460232425501832
2.6526526526526526,-0.08657927706202322,0.011547372424976405,0.09013152963556806,0.08838126104264493,-0.3072974729630702,1.8487675329019826,1.274991747658856,0.8820361134932131,0.7989062856487591,3.158724385876055,6.520354945832705,-3.039470323499661,-5.217283670189457,-7.038680674273778,14.892258460171762
2.6626626626626626,-0.0677525494585816,0.024160094630234143,0.09870093317145394,0.09602708067904998,-0.27494301477036176,1.9121659046018995,1.24529150510931,0.8303003029836837,0.7289152904107491,3.3045940481140774,6.135100383872706,-2.884784995103374,-5.116164453602302,-6.931361158247816,14.236489440596381
2.6726726726726726,-0.0483117120974095,0.03648427644670582,0.10675790607344807,0.10297920910780642,-0.24116300400561524,1.971351102921972,1.21744101319891,0.779684977473776,0.6604471459920765,3.443391800885393,5.67764804598998,-2.6695421334303524,-4.992602254871079,-6.732083655594801,13.476536033873181
2.6826826826826826,-0.028302595853989147,0.048541475145416985,0.11431482938303579,0.10925762651087911,-0.20603360003773497,2.025577136329009,1.1920500828838572,0.7304417406247743,0.5944881573376637,3.5739919833730127,5.143463858251552,-2.393242619200261,-4.84111642659173,-6.427937015044841,12.595808090141034
2.6926926926926926,-0.007778779492655118,0.06035938645277665,0.12138694757909416,0.11489291369393824,-0.169643214257646,2.0740569730024525,1.1697272836669463,0.6828786560163158,0.5321468768683567,3.6951049875753803,4.529628916678008,-2.057441805352174,-4.655834502355838,-6.0080944256319055,11.579019693304586
2.7027027027027026,0.013198232610120994,0.07197158714428484,0.1279929098422774,0.11992725286386449,-0.1320939059905756,2.1159921221422415,1.1510459482396993,0.6373640280740639,0.47461740490017335,3.805309055689076,3.8357301623040154,-1.6663522181250303,-4.430838516263943,-5.4652558970831056,10.4141226742941
2.7127127127127126,0.03455897385367942,0.0834171978505586,0.13415526313814652,0.12441498050859108,-0.09350232938179068,2.150591933364447,1.1365259951317856,0.5943241019726436,0.42314930428151926,3.903080621975687,3.064766018913736,-1.2273604458075382,-4.160618348548824,-4.797167335773482,9.09448464381
2.7227227227227226,0.05622615671760052,0.09474020844108164,0.13990112865670837,0.12842309699632676,-0.05400083513474248,2.1771146728421633,1.1265983634211858,0.5542348861915063,0.37898349068350046,3.9868655037051233,2.2239317883550025,-0.7513080599566934,-3.84066308171691,-4.008115092752798,7.62113716555154
2.7327327327327327,0.07811574375706856,0.10598807078942024,0.14526260702860674,0.13203045862619492,-0.013736847685867304,2.1949199971949436,1.1215626456674628,0.5176092483952073,0.34327228315674757,4.055176235345289,1.3250108473040396,-0.25231361977237843,-3.4681482290482375,-3.1099697406498734,6.004563851956864
2.7427427427427427,0.1001377361690736,0.11721071062953903,0.15027702558329692,0.13532697577074804,0.027127750752636508,2.2035024046281837,1.1215669296060997,0.4849798089471745,0.3170193554248935,4.106669099208892,0.384333056459355,0.25274241720944046,-3.0425044789384303,-2.122538129923371,4.265619856904628
2.7527527527527527,0.12219801510135608,0.12845862331139218,0.15498699512705424,0.13841136336049603,0.06841896346072358,2.202541633841714,1.1265810968020586,0.4568687919764869,0.30098769791879276,4.140266906208845,-0.5779670747795952,0.7453410411373423,-2.5659222154370815,-1.0729224248783789,2.435159059792112
2.7627627627627627,0.14420045762452588,0.13978089098147312,0.15944024372802462,0.1413884152550577,0.10995382997677089,2.191934035379144,1.136385440242474,0.4337627292049541,0.2956386724662787,4.155244742247782,-1.5393172509904738,1.2068196754377702,-2.04355966301958,0.006208362387424869,0.5521573337305367
2.7727727727727727,0.1660487954666229,0.15122372981966584,0.16368906256047683,0.14436613556366443,0.15154383084142015,2.1718057127668886,1.1505796209160626,0.41608319773643504,0.3010910431549096,4.151292848687408,-2.4764567046813935,1.6199112680404684,-1.483341355179045,1.0792056838677044,-1.3394568297239957
2.7827827827827827,0.18764940794813184,0.16282835187652242,0.167789449544931,0.1474515783400606,0.19300000753850582,2.1425094649346934,1.1686065137206316,0.4041587604516839,0.31710555755719355,4.128549510596827,-3.3674713637183546,1.9703251631531384,-0.8954682921367244,2.1106526016449645,-3.194905544308303
2.7927927927927927,0.2089131668164191,0.17462974955868482,0.1718002710001859,0.150747891530837,0.2341366989468811,2.1046055242776327,1.1897823664186402,0.3982091650813995,0.3431005090407957,4.087590134349844,-4.19354000495971,2.247798758687812,-0.29158103558497106,3.0684399091362176,-4.97266980080746
2.8028028028028027,0.2297573388597161,0.18665578174735442,0.17578189632768274,0.1543508771781001,0.2747760115035144,2.0588204432288535,1.2133442528399876,0.39833426704281527,0.3782011753172604,4.0293732713084385,-4.940228636042191,2.4465931513628023,0.3162398886119398,3.926351269124857,-6.638038301137045
2.8128128128128127,0.2501072823312053,0.19892626312673894,0.1797951331538332,0.15834624339665906,0.3147514087291477,2.0059984323177216,1.2384963092127326,0.40451472066957667,0.42131011032288435,3.9551573417272725,-5.598165864994229,2.5654684604105116,0.9163993260129312,4.665701334360392,-8.165435286530585
2.8228228228228227,0.26989706288073995,0.21145314670422036,0.18390006730803432,0.16280804875843236,0.35390988610055224,1.9470560377096369,1.2644470441035287,0.4166203542278662,0.47117695459857034,3.866414232895721,-6.162969563850858,2.607027452759803,1.4986141869647032,5.275860821209249,-9.539293310722408
2.8328328328328327,0.2890700636809398,0.22424069582283931,0.18815491864628484,0.16779740352771522,0.392113845628102,1.8829270148093713,1.2904490814258514,0.43442865767737476,0.5264905479858879,3.7647144049152117,-6.634680460941923,2.5768102677627396,2.0544487878242705,5.753827463166522,-10.753630122232304
2.8428428428428427,0.30757904957121024,0.23728586671535437,0.1926153623024974,0.17336219910262746,0.4292416323201735,1.8145282429325118,1.315820425894114,0.4576411728085721,0.5859393623812366,3.6516512294749854,-7.016863386372642,2.4823003502995085,2.5775430315558663,6.103106727214945,-11.810645118262602
2.8528528528528527,0.32538562218794476,0.2505793148678613,0.19733376918834675,0.1795375262741626,0.46518721745874103,1.7427280662708824,1.3399584157506292,0.48590731064625275,0.6482733425631084,3.5287624437658263,-7.315532142606781,2.3319073663490606,3.063631837912336,6.332178388456599,-12.718763641459496
2.8628628628628627,0.34245980761483713,0.2641060326287038,0.20235881849381918,0.18634645496404328,0.4998595039428778,1.668325052948969,1.3623472685788307,0.5188436046338027,0.7123477648118178,3.3974766596502253,-7.538173272297004,2.134209781084861,3.5103290469831623,6.452907835143891,-13.490573535570691
2.8728728728728727,0.3587792592937067,0.2778462481009297,0.20773526673365564,0.19380113550293698,0.5331810928637425,1.5920400731069877,1.382555057683084,0.5560498544842994,0.7771454654881185,3.2590858817327137,-7.69289735340292,1.897373538084176,3.9168139233102313,6.479103157453088,-14.140940592589992
2.8828828828828827,0.3743283437802098,0.2917763439478823,0.21350385780534792,0.20190439567163349,0.565086578592505,1.5145127613685732,1.400226807169615,0.5971253222316647,0.841792533919842,3.1147279863383304,-7.787784943024941,1.6287774209376498,4.283480802053264,6.4253008970004615,-14.68545295591066
2.8928928928928928,0.3890975461576579,0.30586942173268805,0.21970131918775676,0.21065092159098112,0.5955213667188647,1.436302711213459,1.4150786680977991,0.641676540653941,0.9055610713641955,2.96538548892303,-7.830470016217566,1.3348650006686782,4.6115716973055525,6.305891985526032,-15.139307246797081
2.9029029029029028,0.40308252214048357,0.3200960756106539,0.22636055673287567,0.22002882333467297,0.6244398570219,1.3578973560910637,1.4268849696372936,0.6893261717537031,0.96786358206247,2.811893917343545,-7.827861939785217,1.021085004326029,4.90286300710874,6.13450659009594,-15.516550597598947
2.9129129129129128,0.41628344014274726,0.33442493248430766,0.2335107911309978,0.23002112726879878,0.6518040535661338,1.2797196393756576,1.4354694994622648,0.739716098850306,1.0282424328359743,2.6549575786565387,-7.7860264687821195,0.6919453730799245,5.159409053693316,5.923643021127989,-15.829658833372529
2.9229229229229228,0.42870449779364184,0.3488230276006535,0.2411776962436827,0.24060673774970226,0.6775826073165695,1.2021345662302692,1.4406987040099968,0.7925087633560297,1.0863603575812677,2.4951623490489,-7.710170268276502,0.3511296634429955,5.383328773671978,5.684492289064615,-16.08936999133307
2.932932932932933,0.4403532514070674,0.36325621524001545,0.24938377077278473,0.2517617389273544,0.701749381939312,1.125460378838182,1.4424705249748635,0.8473883372798972,1.1419849411229825,2.332995747335849,-7.604670851988655,0.0016224595686851091,5.576649390419136,5.426878524772458,-16.304660295470033
2.942942942942943,0.4512402077731677,0.37768951924974636,0.2581484150981428,0.26346048026178376,0.7242826743214525,1.0499757707703208,1.4407100445017564,0.9040576374866649,1.1949735058753388,2.1688662379188326,-7.473152297463287,-0.35415886157132226,5.741212505968447,5.159280783729977,-16.482835839619966
2.952952952952953,0.46137855051915105,0.39208732604138713,0.2674880545697748,0.275676159628184,0.7451646942895456,0.9759248160014199,1.4353658654466894,0.9622367549478077,1.245264084019136,2.003114101192695,-7.318583555740805,-0.7142240784034416,5.878596446351788,4.88891114871908,-16.6296869913925
2.962962962962963,0.47078375522659693,0.4064135212313036,0.2774165300932926,0.2883816961596727,0.7643806441591958,0.9035260512631011,1.4264030202933924,1.02166077767541,1.29286083478235,1.8360289370907412,-7.143372391629166,-1.0768797905356409,5.990058172133526,4.621809419987065,-16.749635826122397
2.972972972972973,0.47947333919073776,0.4206317847417251,0.2879450480960522,0.3015504343321137,0.7819184223215524,0.83297680286772,1.4138028032478602,1.0820747013445349,1.3378206872509402,1.66786466856678,-6.949451192808146,-1.4406346264691967,6.076523852109829,4.3629330354533025,-16.84588669470803
2.982982982982983,0.4874667198245303,0.43470574235857423,0.2990821799961455,0.31515645242553164,0.797768457193686,0.7644554650435272,1.3975622315342768,1.1432313775575886,1.3802470321864382,1.4988464166838693,-6.738362307377454,-1.8041020231915235,6.138573564220142,4.116248343660157,-16.92056919670334
2.992992992992993,0.49478504867761325,0.4485989464794748,0.31083418470127055,0.3291750328628254,0.8119232258914773,0.6981275468727868,1.3776905924718335,1.2048882396351306,1.4202787940119728,1.3291826872852996,-6.511335456903169,-2.1658946632524114,6.176410898687206,3.8848095650020196,-16.974830037010868
3.003003003003003,0.5014510858789664,0.4622750919205097,0.3232049252502484,0.3435830070009355,0.8243772416993721,0.6341481335417912,1.3542113211343472,1.266802222625414,1.4580798501226522,1.1590766377387987,-6.2693464208064,-2.524555101871469,6.189863467216024,3.670812427549054,-17.008899329571545
3.013013013013013,0.5074890461443391,0.4756983276952219,0.336195678631912,0.3583589678637456,0.8351271411426631,0.5726628097482652,1.3271641972893338,1.328726371698912,1.4938314240125468,0.9887337167544458,-6.013161664706854,-2.878503071440773,6.178387342061225,3.475627570650711,-17.022130159465586
3.023023023023023,0.5129245606708281,0.48883328350326744,0.3498052143935367,0.3734833502715258,0.8441716556487985,0.5138098667146441,1.2966055435851467,1.3904071333916241,1.527725877074445,0.8183685723875463,-5.743392587246305,-3.2259524670605564,6.141040715739232,3.299825589484334,-17.01300841473747
3.033033033033033,0.5177847216324664,0.5016449926676028,0.36402991651366623,0.3889385436388077,0.851511607492811,0.4577232584380384,1.2626093730128494,1.451579496405624,1.5599580803790174,0.6482151321470901,-5.46055360771072,-3.564815333773071,6.076447871034059,3.14318313767151,-16.979126541491667
3.043043043043043,0.5220978749453278,0.5140995369794197,0.37886328242819944,0.4047088185930111,0.8571504783504017,0.40453179858507005,1.2252739889601012,1.5119612099520952,1.5907137572311776,0.4785390926346924,-5.165082335720909,-3.8926828013154946,5.982813870342993,3.0046642442769076,-16.917142565051545
3.053053053053053,0.5258935521157769,0.5261642320553708,0.39429580577168144,0.4207802888491787,0.8610945704323439,0.35435923650298695,1.1847236746906022,1.5712510285707155,1.6201654488856858,0.309642290887244,-4.857389443222695,-4.2067573770284525,5.857908033192273,2.8823975494561282,-16.82273990832713
3.063063063063063,0.5292025727279864,0.5378076124061171,0.41031498033721897,0.4371407069593447,0.8633533259546616,0.3073257806496039,1.1411119260931801,1.6291233557330052,1.6484637817130954,0.14187402865137966,-4.537932756196284,-4.503756468152236,5.699035803786008,2.7736569212766344,-16.69057885176914
3.073073073073073,0.5320570484386649,0.5489997527203806,0.426904975266184,0.45377916305085325,0.8639399607140957,0.2635470826486708,1.0946277389817758,1.685222505665625,1.6757277776874997,-0.02435699813413733,-4.207288625949131,-4.779855256140574,5.50305392240692,2.674839063132696,-16.514271002302166
3.083083083083083,0.5344900732739551,0.5597131453736678,0.4440460296745614,0.4706856246279549,0.8628723704782549,0.2231310179436341,1.0455028858953845,1.739159000675568,1.702033020656691,-0.18857043416422248,-3.8662054352845994,-5.030702580292293,5.266444977409751,2.581452994558865,-16.28639936828908
3.093093093093093,0.5365357196522181,0.56992280809861,0.4617143669068867,0.4878507574001224,0.8601733907845753,0.18617699479227637,0.9940136807268999,1.790508369535423,1.727408520622608,-0.3502106809972383,-3.5157191542638935,-5.2513813162439895,4.9853956827057635,2.4881425841947635,-15.998612560281108
3.103103103103103,0.5382291669356039,0.5796065462122724,0.4798818590485769,0.5052651893299472,0.8558718694244368,0.15277281625758968,0.9404889619959084,1.8388053238986104,1.75182536255318,-0.5086327288793246,-3.157289707510737,-5.436409863039652,4.655938305858028,2.388766105185395,-15.641815846970974
3.113113113113113,0.5396063327962214,0.5887458726952641,0.4985154396658808,0.5229188457726097,0.8500037203329087,0.12298811694596903,0.8853152374725515,1.8835457171847716,1.775188991126847,-0.6630981499595224,-2.7929020267200695,-5.5798883895750935,4.274218108763906,2.2765376213839246,-15.206517142685989
3.123123123123123,0.5407036451251759,0.5973265326393503,0.5175768237351842,0.5408004395451997,0.8426126134377757,0.09686997041768014,0.8289385929910336,1.924189433076903,1.7973348801621314,-0.8127742692705203,-2.425191024228084,-5.675684021511519,3.8368314287977827,2.144255009563317,-14.68333001146536
3.133133133133133,0.5415579655564935,0.605338918407764,0.537022176478663,0.5588966784880615,0.8337510199727493,0.07443557006111354,0.771867418832523,1.9601648413335249,1.8180257077603008,-0.9567365556393117,-2.0575654926737776,-5.717703830961777,3.34125948429224,1.9846417631269242,-14.063677912680369
3.143143143143143,0.5422060796897412,0.6127788896443102,0.5568018250171497,0.5771914782593359,0.8234811225354521,0.05566321304360046,0.7146683788485261,1.990883338038537,1.8369531477302314,-1.093984163283264,-1.6942531966433823,-5.700343820237934,2.78641012454669,1.790805764039274,-13.340699240546765
3.153153153153153,0.5426843468279785,0.6196482236187304,0.5768601859360409,0.5956653880997996,0.8118753730386261,0.040485394816271295,0.6579600708943932,2.0157538169062565,1.8537434569542959,-1.2234587444531284,-1.3403015660430702,-5.619006818423471,2.173192163226098,1.5567874844306213,-12.510274955287773
3.163163163163163,0.54302819216794,0.6259550889514627,0.5971358398595489,0.6142949130664136,0.7990169954197698,0.028779967532427325,0.6023994012618155,2.034207147363532,1.8679710587325185,-1.3440801418164499,-1.0014671369299848,-5.4707228210731715,1.5050764405541137,1.278188544991027,-11.57213873059656
3.173173173173173,0.5432715101866666,0.6317143547244409,0.6175618975084824,0.6330521218621319,0.7849999484825687,0.020364754524235622,0.5486621934647135,2.0457235149189965,1.8791763619382622,-1.4547884598437306,-0.6839852631908779,-5.2547804617180915,0.7885368755922572,0.9527905955375701,-10.530879007493695
3.183183183183183,0.5434460605043127,0.6369476372141003,0.638066643886667,0.651904413154681,0.7699284802397006,0.014994071407325258,0.4974176869513036,2.0498640815732734,1.886891108322248,-1.5545977879353876,-0.3942173216240651,-4.973276011990035,0.03326127205591526,0.5810866189547834,-9.396674855246918
3.193193193193193,0.5435808291104962,0.6416831029221332,0.6585745017259838,0.6708145699461596,0.753916111423531,0.012359817561644192,0.44929868522557737,2.046302508337369,1.8906666866825435,-1.6426528404488308,-0.13819349390390698,-4.631468829445019,-0.7479719085972031,0.16661136633175844,-8.185553225841101
3.203203203203203,0.5437014240619464,0.6459549266921697,0.6790073262001703,0.6897411188535125,0.7370840089763779,0.012097378721414141,0.4048688746687216,2.034854051614794,1.8901056902158595,-1.7182872879562883,0.07889853698962768,-4.237831106713281,-1.539818591891797,-0.2840219315831709,-6.919016078825757
